assets/luts/Cox.cube
# 3D Color LUT 'Q-DDL_Pack_5 / Cox' (http://quickddl.net/free_color_luts)
TITLE "Cox"
LUT_3D_SIZE 5
DOMAIN_MIN 0.0 0.0 0.0
DOMAIN_MAX 1.0 1.0 1.0
0.0056377979926764965 0.051817368716001511 0.05046454444527626
0.18879429996013641 0.075540609657764435 0.037311233580112457
0.42576983571052551 0.078160904347896576 0.015310118906199932
0.67233657836914062 0.086832687258720398 0.012174633331596851
0.9105527400970459 0.042109400033950806 0.01565893180668354
0.039111200720071793 0.22794422507286072 0.065234579145908356
0.18746426701545715 0.24259242415428162 0.017355252057313919
0.42514169216156006 0.25118735432624817 0.0027926184702664614
0.68308323621749878 0.25268802046775818 0.0042250277474522591
0.91919678449630737 0.24880208075046539 0.0053361332975327969
0.1615922600030899 0.45957973599433899 0.1169951856136322
0.23700247704982758 0.47146707773208618 0.052279338240623474
0.40947070717811584 0.49073126912117004 0.03811950609087944
0.66413146257400513 0.49945846199989319 0.018981421366333961
0.93064594268798828 0.48081716895103455 0.0045305113308131695
0.34397312998771667 0.69614654779434204 0.26676735281944275
0.38491213321685791 0.70186138153076172 0.21859431266784668
0.50967693328857422 0.71456688642501831 0.17039397358894348
0.69270747900009155 0.7344774603843689 0.19967707991600037
0.90300363302230835 0.74543768167495728 0.17615464329719543
0.52121973037719727 0.90980738401412964 0.41255539655685425
0.54648059606552124 0.9159889817237854 0.38383504748344421
0.63600802421569824 0.92477679252624512 0.32346385717391968
0.78735196590423584 0.93929934501647949 0.31749361753463745
0.94516366720199585 0.95591390132904053 0.33893528580665588
0.014001774601638317 0.070924438536167145 0.12954820692539215
0.11590226739645004 0.12774132192134857 0.14839503169059753
0.28330099582672119 0.20684716105461121 0.16888724267482758
0.53350740671157837 0.25958845019340515 0.18782143294811249
0.80724555253982544 0.24895089864730835 0.21148350834846497
0.073962859809398651 0.23173516988754272 0.16402736306190491
0.16038137674331665 0.25523796677589417 0.16012473404407501
0.35797405242919922 0.29113674163818359 0.15425656735897064
0.60585558414459229 0.31826415657997131 0.1705814003944397
0.85873985290527344 0.31988498568534851 0.20237906277179718
0.20425340533256531 0.45421713590621948 0.23428378999233246
0.23951643705368042 0.4710858166217804 0.21448913216590881
0.39558246731758118 0.49549436569213867 0.18167771399021149
0.65918624401092529 0.50472325086593628 0.15457415580749512
0.91307783126831055 0.50335526466369629 0.14690034091472626
0.37517756223678589 0.69272500276565552 0.36083802580833435
0.39411541819572449 0.70255070924758911 0.33810389041900635
0.49857771396636963 0.71907955408096313 0.28192776441574097
0.68275010585784912 0.74200361967086792 0.28768086433410645
0.89629483222961426 0.75047141313552856 0.27544033527374268
0.53451526165008545 0.90374279022216797 0.48928031325340271
0.55910205841064453 0.9120485782623291 0.47015091776847839
0.63042861223220825 0.92711222171783447 0.40841791033744812
0.77651798725128174 0.9401201605796814 0.39021885395050049
0.93825238943099976 0.95777523517608643 0.40853926539421082
0.061523303389549255 0.11911328881978989 0.21302945911884308
0.13539953529834747 0.1582023948431015 0.22538121044635773
0.25983789563179016 0.24176196753978729 0.24940229952335358
0.41215682029724121 0.34819129109382629 0.29418265819549561
0.59128654003143311 0.43231391906738281 0.35152566432952881
0.10515547543764114 0.25287777185440063 0.23683428764343262
0.16599248349666595 0.27595090866088867 0.25359261035919189
0.29091823101043701 0.33557608723640442 0.27917355298995972
0.44998782873153687 0.41602647304534912 0.32097432017326355
0.65311765670776367 0.47478479146957397 0.37885770201683044
0.22316189110279083 0.46128058433532715 0.31318792700767517
0.26937365531921387 0.47763210535049438 0.32410332560539246
0.37436848878860474 0.50941359996795654 0.3428119421005249
0.58082515001296997 0.54305088520050049 0.36581659317016602
0.81208294630050659 0.56104850769042969 0.40752312541007996
0.41195666790008545 0.68714368343353271 0.46189272403717041
0.44845801591873169 0.69860422611236572 0.47562852501869202
0.50968116521835327 0.72293949127197266 0.4619213342666626
0.6615714430809021 0.74798494577407837 0.44592472910881042
0.89627015590667725 0.75024515390396118 0.4310271143913269
0.59627836942672729 0.89168733358383179 0.62340569496154785
0.60935491323471069 0.90208488702774048 0.61717134714126587
0.64740347862243652 0.92337262630462646 0.59199577569961548
0.75637221336364746 0.94467824697494507 0.53602862358093262
0.92582476139068604 0.96518409252166748 0.54631131887435913
0.12451916188001633 0.17674908041954041 0.30088111758232117
0.17233584821224213 0.20399884879589081 0.31094896793365479
0.28391304612159729 0.27243831753730774 0.33526793122291565
0.42993682622909546 0.37127143144607544 0.38059061765670776
0.57237380743026733 0.46840634942054749 0.4416620135307312
0.15525096654891968 0.28674396872520447 0.33001133799552917
0.20346552133560181 0.3068619966506958 0.3431466817855835
0.31062987446784973 0.35989415645599365 0.36861923336982727
0.45823386311531067 0.43958118557929993 0.40998688340187073
0.59480583667755127 0.52493470907211304 0.4703180193901062
0.25007170438766479 0.48088338971138 0.41215971112251282
0.29308226704597473 0.49500903487205505 0.42231020331382751
0.37696367502212524 0.52688497304916382 0.44832369685173035
0.52219438552856445 0.58002054691314697 0.48754316568374634
0.66616284847259521 0.6368100643157959 0.54047548770904541
0.4289054274559021 0.70065540075302124 0.54880279302597046
0.46079447865486145 0.71098101139068604 0.55490016937255859
0.53157156705856323 0.72824257612228394 0.56695860624313354
0.64377260208129883 0.75938189029693604 0.59917294979095459
0.82295650243759155 0.78782421350479126 0.6276252269744873
0.61115258932113647 0.89755290746688843 0.69227957725524902
0.63309907913208008 0.90583628416061401 0.69766288995742798
0.68359088897705078 0.9186246395111084 0.7141120433807373
0.76277661323547363 0.94495195150375366 0.71475511789321899
0.90356618165969849 0.97440254688262939 0.70699191093444824
0.19105230271816254 0.22953878343105316 0.38195088505744934
0.23119193315505981 0.25216308236122131 0.38793891668319702
0.32111966609954834 0.3108525276184082 0.41322290897369385
0.45102477073669434 0.40196791291236877 0.46517294645309448
0.59009981155395508 0.49962374567985535 0.53656238317489624
0.22128893435001373 0.3265937864780426 0.4146232008934021
0.2626960277557373 0.34782522916793823 0.42232388257980347
0.34260320663452148 0.39511239528656006 0.44955480098724365
0.47301703691482544 0.46716621518135071 0.49863728880882263
0.61827278137207031 0.55034905672073364 0.5642055869102478
0.2892034649848938 0.50593167543411255 0.4973558783531189
0.33299648761749268 0.5216948390007019 0.51002466678619385
0.40864235162734985 0.55428320169448853 0.54004234075546265
0.53339064121246338 0.60190314054489136 0.5812872052192688
0.67973887920379639 0.65718168020248413 0.63167905807495117
0.46734574437141418 0.71827924251556396 0.63653606176376343
0.48664951324462891 0.72861409187316895 0.63933700323104858
0.54766428470611572 0.74849951267242432 0.66098600625991821
0.64809507131576538 0.77811908721923828 0.69185054302215576
0.76844495534896851 0.82034200429916382 0.73859268426895142
0.63497793674468994 0.90967375040054321 0.75818699598312378
0.65581321716308594 0.91667890548706055 0.76486945152282715
0.70631390810012817 0.92786449193954468 0.78052306175231934
0.78237444162368774 0.95397746562957764 0.81013256311416626
0.89805698394775391 0.9843137264251709 0.86913496255874634
