assets/luts/Cox.cube
# 3D Color LUT 'Q-DDL_Pack_5 / Cox' (http://quickddl.net/free_color_luts)
TITLE "Cox"
LUT_3D_SIZE 17
DOMAIN_MIN 0.0 0.0 0.0
DOMAIN_MAX 1.0 1.0 1.0
0.0056377979926764965 0.051817368716001511 0.05046454444527626
0.026662923395633698 0.056105762720108032 0.048864208161830902
0.069462649524211884 0.06300845742225647 0.047019165009260178
0.12721553444862366 0.070903554558753967 0.044013019651174545
0.18879429996013641 0.075540609657764435 0.037311233580112457
0.24974127113819122 0.076156914234161377 0.028943425044417381
0.30951204895973206 0.075481176376342773 0.021740002557635307
0.36797416210174561 0.076030269265174866 0.017282633110880852
0.42576983571052551 0.078160904347896576 0.015310118906199932
0.48515027761459351 0.081016950309276581 0.014025307260453701
0.54633212089538574 0.086004406213760376 0.01339498907327652
0.60850155353546143 0.090103037655353546 0.013222647830843925
0.67233657836914062 0.086832687258720398 0.012174633331596851
0.73729556798934937 0.076676890254020691 0.010348251089453697
0.8010750412940979 0.06595505028963089 0.009759402833878994
0.86188560724258423 0.053798072040081024 0.01174739096313715
0.9105527400970459 0.042109400033950806 0.01565893180668354
0.0096753658726811409 0.083192437887191772 0.056962020695209503
0.033517230302095413 0.086403205990791321 0.050475727766752243
0.077450588345527649 0.091342277824878693 0.042599957436323166
0.13418276607990265 0.097073189914226532 0.03500162810087204
0.19501262903213501 0.10052920877933502 0.027745902538299561
0.25572249293327332 0.10085328668355942 0.021815631538629532
0.31520169973373413 0.10031471401453018 0.016856050118803978
0.37297731637954712 0.10161260515451431 0.013652346096932888
0.42969560623168945 0.1052885502576828 0.012642893008887768
0.48800092935562134 0.10962114483118057 0.012516675516963005
0.54824483394622803 0.11509623378515244 0.01242157444357872
0.6093326210975647 0.12015639245510101 0.012412095442414284
0.67194455862045288 0.11985660344362259 0.011845006607472897
0.73606568574905396 0.11354732513427734 0.010309196077287197
0.80030143260955811 0.10475333780050278 0.0092127537354826927
0.86197274923324585 0.094018988311290741 0.010022199712693691
0.91099786758422852 0.08387882262468338 0.01236357819288969
0.016261802986264229 0.12586374580860138 0.063105084002017975
0.041123319417238235 0.12833216786384583 0.052069596946239471
0.083463713526725769 0.13191406428813934 0.039128284901380539
0.13751257956027985 0.13604980707168579 0.027808904647827148
0.19679698348045349 0.13890518248081207 0.019760923460125923
0.25705850124359131 0.13967211544513702 0.015194058418273926
0.31687965989112854 0.13979229331016541 0.01189052127301693
0.37558084726333618 0.14140777289867401 0.0096648633480072021
0.43336924910545349 0.14502023160457611 0.0091054197400808334
0.49193751811981201 0.14933846890926361 0.0094815501943230629
0.55130493640899658 0.15472930669784546 0.0097130350768566132
0.61120730638504028 0.16017714142799377 0.010015006177127361
0.67277336120605469 0.16212822496891022 0.010252436622977257
0.735942542552948 0.15978576242923737 0.0095037072896957397
0.80022042989730835 0.15424627065658569 0.0084197996184229851
0.8623625636100769 0.14664503931999207 0.0084593659266829491
0.91147470474243164 0.13954092562198639 0.0095436805859208107
0.025706624612212181 0.1747448742389679 0.065111637115478516
0.049525465816259384 0.17691203951835632 0.051830179989337921
0.088080942630767822 0.18012923002243042 0.036743681877851486
0.13714279234409332 0.18406040966510773 0.02445700392127037
0.19229784607887268 0.1875484436750412 0.016377648338675499
0.25052568316459656 0.1896260678768158 0.011823548004031181
0.31076827645301819 0.19070091843605042 0.0084926960989832878
0.37183517217636108 0.19203425943851471 0.0060971048660576344
0.43280705809593201 0.19409354031085968 0.0052186367101967335
0.49373152852058411 0.19665776193141937 0.005401921458542347
0.55414676666259766 0.20045232772827148 0.0058089778758585453
0.61489248275756836 0.20436063408851624 0.0065519106574356556
0.6771889328956604 0.20618325471878052 0.0074485428631305695
0.74000459909439087 0.20631709694862366 0.0074802683666348457
0.80341875553131104 0.20444443821907043 0.0069329491816461086
0.86480146646499634 0.2007344663143158 0.0068784561008214951
0.91330677270889282 0.19687451422214508 0.0073557319119572639
0.039111200720071793 0.22794422507286072 0.065234579145908356
0.061138197779655457 0.23002226650714874 0.051775738596916199
0.095364153385162354 0.23336252570152283 0.036784742027521133
0.13830870389938354 0.23784953355789185 0.025072317570447922
0.18746426701545715 0.24259242415428162 0.017355252057313919
0.24150986969470978 0.24639590084552765 0.012338603846728802
0.30003350973129272 0.24881462752819061 0.0080574266612529755
0.36174952983856201 0.25032079219818115 0.0046429401263594627
0.42514169216156006 0.25118735432624817 0.0027926184702664614
0.48929965496063232 0.251585453748703 0.002200116403400898
0.55337339639663696 0.25234246253967285 0.0024170554243028164
0.61790370941162109 0.25290566682815552 0.0032892688177525997
0.68308323621749878 0.25268802046775818 0.0042250277474522591
0.74706047773361206 0.25306093692779541 0.0044920658692717552
0.81023979187011719 0.25298845767974854 0.0045749121345579624
0.87108033895492554 0.25126007199287415 0.0049062701873481274
0.91919678449630737 0.24880208075046539 0.0053361332975327969
0.058934882283210754 0.28424504399299622 0.067997686564922333
0.078452803194522858 0.28628405928611755 0.055602472275495529
0.1082901805639267 0.28970110416412354 0.041345041245222092
0.1457275003194809 0.29448488354682922 0.029248932376503944
0.18937596678733826 0.29998978972434998 0.020458383485674858
0.23833703994750977 0.30516892671585083 0.014634541235864162
0.29209339618682861 0.30924689769744873 0.010264904238283634
0.35039207339286804 0.3119569718837738 0.0066447276622056961
0.41284734010696411 0.31303095817565918 0.0037099488545209169
0.4786456823348999 0.31243851780891418 0.0015676856273785233
0.54643505811691284 0.31099459528923035 0.00071226962609216571
0.61538022756576538 0.30896583199501038 0.00092983420472592115
0.68436610698699951 0.30661967396736145 0.0013127663405612111
0.75150883197784424 0.30512994527816772 0.0013943902449682355
0.81720316410064697 0.30341187119483948 0.0018650417914614081
0.88012278079986572 0.30003419518470764 0.0026644926983863115
0.92965686321258545 0.29621613025665283 0.0033504227176308632
0.087748199701309204 0.34227830171585083 0.076235756278038025
0.10332824289798737 0.34420850872993469 0.065252326428890228
0.12809740006923676 0.34746453166007996 0.051333490759134293
0.1605348140001297 0.35201537609100342 0.037062674760818481
0.19944864511489868 0.35744339227676392 0.024846721440553665
0.24350619316101074 0.3631499707698822 0.01728295162320137
0.29154688119888306 0.36848312616348267 0.013952739536762238
0.34423065185546875 0.37264800071716309 0.012230729684233665
0.40277451276779175 0.37483486533164978 0.0094083640724420547
0.46721801161766052 0.37484952807426453 0.0053535350598394871
0.53615164756774902 0.37351393699645996 0.0024304334074258804
0.60759276151657104 0.37130948901176453 0.0010287746554240584
0.67935001850128174 0.36834517121315002 0.0003461245505604893
0.74980264902114868 0.36501055955886841 0
0.81941729784011841 0.3604467511177063 0.0003631534636951983
0.88626861572265625 0.35396087169647217 0.0011136919492855668
0.93860894441604614 0.34773316979408264 0.0017453511245548725
0.12386917322874069 0.40087437629699707 0.092075027525424957
0.13492655754089355 0.40263497829437256 0.082316532731056213
0.15430884063243866 0.40561681985855103 0.068255700170993805
0.18156476318836212 0.40969845652580261 0.050864480435848236
0.21531194448471069 0.41453656554222107 0.033673904836177826
0.25472208857536316 0.41993159055709839 0.022978365421295166
0.29866775870323181 0.42555177211761475 0.020178070291876793
0.34698286652565002 0.43055766820907593 0.021349411457777023
0.40084215998649597 0.43400004506111145 0.020706899464130402
0.46139085292816162 0.43562671542167664 0.016032133251428604
0.52823531627655029 0.43610730767250061 0.010935136117041111
0.59914660453796387 0.43568623065948486 0.0071357493288815022
0.6711040735244751 0.43404442071914673 0.0042458991520106792
0.74259603023529053 0.43087217211723328 0.0023512199986726046
0.81447070837020874 0.42542877793312073 0.001729389769025147
0.88412284851074219 0.41771900653839111 0.0017657841090112925
0.93857371807098389 0.41045567393302917 0.0018373761558905244
0.1615922600030899 0.45957973599433899 0.1169951856136322
0.17035506665706635 0.46113047003746033 0.10820918530225754
0.18596759438514709 0.46379232406616211 0.093989990651607513
0.20847247540950775 0.46736559271812439 0.074047386646270752
0.23700247704982758 0.47146707773208618 0.052279338240623474
0.27227017283439636 0.47607854008674622 0.03740832582116127
0.31382438540458679 0.48117762804031372 0.033108692616224289
0.35969129204750061 0.48629051446914673 0.035686999559402466
0.40947070717811584 0.49073126912117004 0.03811950609087944
0.46490073204040527 0.49416977167129517 0.035982076078653336
0.52709317207336426 0.49689456820487976 0.031368814408779144
0.59455090761184692 0.498851478099823 0.025777820497751236
0.66413146257400513 0.49945846199989319 0.018981421366333961
0.73420339822769165 0.49805429577827454 0.012673333287239075
0.80578774213790894 0.49396055936813354 0.0084765097126364708
0.87580478191375732 0.48738408088684082 0.0060614864341914654
0.93064594268798828 0.48081716895103455 0.0045305113308131695
0.20188270509243011 0.51840794086456299 0.14936096966266632
0.21021634340286255 0.51968568563461304 0.14171792566776276
0.22326411306858063 0.52192884683609009 0.12797391414642334
0.24167841672897339 0.52496248483657837 0.10732577741146088
0.26603248715400696 0.52839666604995728 0.083558149635791779
0.29796165227890015 0.53220033645629883 0.065223231911659241
0.33730167150497437 0.53651660680770874 0.057389464229345322
0.38108208775520325 0.54130661487579346 0.058335769921541214
0.42744362354278564 0.54629784822463989 0.062698900699615479
0.47780561447143555 0.55114614963531494 0.065852664411067963
0.53409987688064575 0.5557217001914978 0.066736049950122833
0.59602659940719604 0.55967170000076294 0.063283741474151611
0.66138261556625366 0.56225186586380005 0.053172048181295395
0.7286418080329895 0.5627671480178833 0.040073160082101822
0.79827475547790527 0.56079351902008057 0.028928743675351143
0.86668604612350464 0.55641686916351318 0.02094932459294796
0.92038816213607788 0.55143409967422485 0.015537929721176624
0.24686481058597565 0.57746374607086182 0.18627864122390747
0.25496977567672729 0.57844483852386475 0.17997753620147705
0.26575896143913269 0.58021658658981323 0.16748081147670746
0.2806544303894043 0.58271145820617676 0.14790078997612
0.30163663625717163 0.58560854196548462 0.12463150918483734
0.33044418692588806 0.58880943059921265 0.10463789850473404
0.36683526635169983 0.5924801230430603 0.093040294945240021
0.40794616937637329 0.59682649374008179 0.090428002178668976
0.45142462849617004 0.60187220573425293 0.094344869256019592
0.49779894948005676 0.60736078023910522 0.10155236721038818
0.54867768287658691 0.61294877529144287 0.10922884941101074
0.6044575572013855 0.61808621883392334 0.11226024478673935
0.66428536176681519 0.62195801734924316 0.10498000681400299
0.72746145725250244 0.62401896715164185 0.089518539607524872
0.79385524988174438 0.62416720390319824 0.072740562260150909
0.85936784744262695 0.62226122617721558 0.058310989290475845
0.91100585460662842 0.61922883987426758 0.047561183571815491
0.29481068253517151 0.6367681622505188 0.22577936947345734
0.30248579382896423 0.63754278421401978 0.22064152359962463
0.3117460310459137 0.63892519474029541 0.20979051291942596
0.32399347424507141 0.64094966650009155 0.19226096570491791
0.34190616011619568 0.64341366291046143 0.17074571549892426
0.36730760335922241 0.64619380235671997 0.15052489936351776
0.40009412169456482 0.64940130710601807 0.13616092503070831
0.43809184432029724 0.65327191352844238 0.12968173623085022
0.47913828492164612 0.65793389081954956 0.13089428842067719
0.52286481857299805 0.6632460355758667 0.13820360600948334
0.5698927640914917 0.66888046264648438 0.14885437488555908
0.62048089504241943 0.6743285059928894 0.15743435919284821
0.67457258701324463 0.67893838882446289 0.15740855038166046
0.73246455192565918 0.68234896659851074 0.14809787273406982
0.79412537813186646 0.68452274799346924 0.1341705322265625
0.85551190376281738 0.68504011631011963 0.11951137334108353
0.90437972545623779 0.68405419588088989 0.10694265365600586
0.34397312998771667 0.69614654779434204 0.26676735281944275
0.3510926365852356 0.69684988260269165 0.2625097930431366
0.35947006940841675 0.69801300764083862 0.25328105688095093
0.36982670426368713 0.699715256690979 0.23800399899482727
0.38491213321685791 0.70186138153076172 0.21859431266784668
0.40683034062385559 0.70433640480041504 0.19895163178443909
0.43591862916946411 0.70717900991439819 0.1829025000333786
0.47078990936279297 0.71054947376251221 0.17302227020263672
0.50967693328857422 0.71456688642501831 0.17039397358894348
0.55162662267684937 0.71918481588363647 0.17465148866176605
0.59628373384475708 0.72422939538955688 0.18386349081993103
0.64330321550369263 0.72944271564483643 0.19392861425876617
0.69270747900009155 0.7344774603843689 0.19967707991600037
0.74536025524139404 0.73901885747909546 0.19898244738578796
0.80155467987060547 0.74274605512619019 0.19344305992126465
0.85778075456619263 0.7449495792388916 0.18517115712165833
0.90300363302230835 0.74543768167495728 0.17615464329719543
0.3935336172580719 0.75527042150497437 0.30814248323440552
0.39991205930709839 0.75601476430892944 0.30451914668083191
0.40743228793144226 0.75713682174682617 0.29665589332580566
0.41627752780914307 0.75870072841644287 0.28346407413482666
0.4289742112159729 0.76066452264785767 0.26618775725364685
0.44782236218452454 0.76292794942855835 0.24758109450340271
0.47361525893211365 0.765472412109375 0.23068250715732574
0.50559145212173462 0.76837533712387085 0.21812710165977478
0.54235309362411499 0.77172160148620605 0.21166008710861206
0.58270364999771118 0.77554112672805786 0.21174110472202301
0.62567603588104248 0.77984791994094849 0.21728856861591339
0.670371413230896 0.78467357158660889 0.22559431195259094
0.71653950214385986 0.78992611169815063 0.23313659429550171
0.76503932476043701 0.79520183801651001 0.23771992325782776
0.81616795063018799 0.79976105690002441 0.23950773477554321
0.86698061227798462 0.80267202854156494 0.23909491300582886
0.90799766778945923 0.80380916595458984 0.23622409999370575
0.44206246733665466 0.81340163946151733 0.34822455048561096
0.44746682047843933 0.81427067518234253 0.34491172432899475
0.45400306582450867 0.81547904014587402 0.33812037110328674
0.46170461177825928 0.81703406572341919 0.32689979672431946
0.47270616888999939 0.81891858577728271 0.31183153390884399
0.48924002051353455 0.8210485577583313 0.29460790753364563
0.51237612962722778 0.82337254285812378 0.27749517560005188
0.54174649715423584 0.82591551542282104 0.26304423809051514
0.57623648643493652 0.82874363660812378 0.25342947244644165
0.61465120315551758 0.83194541931152344 0.24973742663860321
0.65581971406936646 0.83567368984222412 0.25155961513519287
0.69861996173858643 0.84013915061950684 0.25703886151313782
0.74254250526428223 0.84537672996520996 0.26364672183990479
0.78803187608718872 0.8509259819984436 0.26965594291687012
0.83511233329772949 0.85583168268203735 0.27501705288887024
0.88131344318389893 0.85908591747283936 0.27969667315483093
0.91855305433273315 0.86059778928756714 0.2817680835723877
0.48688706755638123 0.8677946925163269 0.38475772738456726
0.49130937457084656 0.86882156133651733 0.38149034976959229
0.49697169661521912 0.87016886472702026 0.37548536062240601
0.50398468971252441 0.87177783250808716 0.36600464582443237
0.51402682065963745 0.8736451268196106 0.35302126407623291
0.52904313802719116 0.8757053017616272 0.33728843927383423
0.55017614364624023 0.87789654731750488 0.32039126753807068
0.57725942134857178 0.88022202253341675 0.30478101968765259
0.6093984842300415 0.88274270296096802 0.29294753074645996
0.64555191993713379 0.88557827472686768 0.28647118806838989
0.68462586402893066 0.88893979787826538 0.28544768691062927
0.7255365252494812 0.89309394359588623 0.28845095634460449
0.7676120400428772 0.89811652898788452 0.29339912533760071
0.81081140041351318 0.9035872220993042 0.29898187518119812
0.85488736629486084 0.90860509872436523 0.30512323975563049
0.89780443906784058 0.91223752498626709 0.31140375137329102
0.93239343166351318 0.91421705484390259 0.31553533673286438
0.52121973037719727 0.90980738401412964 0.41255539655685425
0.52496391534805298 0.91096347570419312 0.40922161936759949
0.53009361028671265 0.91243422031402588 0.40367385745048523
0.5368276834487915 0.91410863399505615 0.39535370469093323
0.54648059606552124 0.9159889817237854 0.38383504748344421
0.56066626310348511 0.91802597045898438 0.36924844980239868
0.58046489953994751 0.92016071081161499 0.35271516442298889
0.60581552982330322 0.92239135503768921 0.33657193183898926
0.63600802421569824 0.92477679252624512 0.32346385717391968
0.67018693685531616 0.92744344472885132 0.3152778148651123
0.70741730928421021 0.9306073784828186 0.31245040893554688
0.74672359228134155 0.93452966213226318 0.31381446123123169
0.78735196590423584 0.93929934501647949 0.31749361753463745
0.82894766330718994 0.94457340240478516 0.32235890626907349
0.87111198902130127 0.94959461688995361 0.32822021842002869
0.91208875179290771 0.95353192090988159 0.33443403244018555
0.94516366720199585 0.95591390132904053 0.33893528580665588
0.004325005691498518 0.054217666387557983 0.071062594652175903
0.021074198186397552 0.060142364352941513 0.071922488510608673
0.056303039193153381 0.069730296730995178 0.072600513696670532
0.10705680400133133 0.080858305096626282 0.071940340101718903
0.16353620588779449 0.089209407567977905 0.067760609090328217
0.22193720936775208 0.093641728162765503 0.061382729560136795
0.28197851777076721 0.096027009189128876 0.054610554128885269
0.3428720235824585 0.098256818950176239 0.049747273325920105
0.40421509742736816 0.10054590553045273 0.047103535383939743
0.46699291467666626 0.10257991403341293 0.044549033045768738
0.5305216908454895 0.10676800459623337 0.042838450521230698
0.59441947937011719 0.10979041457176208 0.042204294353723526
0.66041600704193115 0.10475652664899826 0.040815886110067368
0.72826588153839111 0.09250379353761673 0.038364090025424957
0.79460823535919189 0.08042839914560318 0.037579834461212158
0.8568117618560791 0.067342668771743774 0.04083450511097908
0.90581905841827393 0.055002246052026749 0.04673008993268013
0.0086972648277878761 0.085009515285491943 0.079068556427955627
0.028772739693522453 0.089521273970603943 0.076096296310424805
0.066503547132015228 0.096568107604980469 0.071552351117134094
0.11747626960277557 0.10479339212179184 0.065918110311031342
0.1737501323223114 0.11120507121086121 0.059755869209766388
0.23214799165725708 0.11458177864551544 0.054330922663211823
0.29187861084938049 0.11639046669006348 0.048615295439958572
0.35169300436973572 0.11870044469833374 0.044129710644483566
0.4113440215587616 0.12204402685165405 0.042150571942329407
0.47244918346405029 0.12553946673870087 0.041036445647478104
0.53468191623687744 0.13055847585201263 0.040263988077640533
0.59727984666824341 0.13523295521736145 0.0401122085750103
0.66190242767333984 0.13374233245849609 0.039471503347158432
0.7288508415222168 0.12532754242420197 0.037527740001678467
0.79547578096389771 0.11500726640224457 0.036199361085891724
0.85824018716812134 0.10359685122966766 0.037988334894180298
0.9073643684387207 0.093281276524066925 0.042135205119848251
0.015895215794444084 0.12738358974456787 0.085958696901798248
0.037800118327140808 0.13075128197669983 0.078811384737491608
0.075916841626167297 0.13563469052314758 0.069297611713409424
0.1261255145072937 0.1412215381860733 0.059224359691143036
0.18208248913288116 0.14593815803527832 0.050703771412372589
0.24058829247951508 0.14874474704265594 0.045238398015499115
0.30047318339347839 0.15046663582324982 0.040382303297519684
0.36026433110237122 0.15272358059883118 0.036431264132261276
0.41952604055404663 0.15607075393199921 0.034836221486330032
0.4794560968875885 0.15998683869838715 0.034628354012966156
0.53990483283996582 0.16540217399597168 0.034631572663784027
0.6008450984954834 0.17104020714759827 0.035179406404495239
0.66414725780487061 0.17228765785694122 0.035735338926315308
0.72996258735656738 0.16791804134845734 0.035020280629396439
0.7963709831237793 0.16063915193080902 0.034033633768558502
0.85931432247161865 0.15234142541885376 0.034931428730487823
0.9083593487739563 0.14521463215351105 0.03746868297457695
0.02667497843503952 0.17609098553657532 0.088797964155673981
0.048058420419692993 0.17893578112125397 0.07905857264995575
0.083577319979667664 0.18289387226104736 0.066913709044456482
0.13015604019165039 0.18742059171199799 0.055083677172660828
0.18344829976558685 0.19170844554901123 0.04533638060092926
0.24100938439369202 0.19479142129421234 0.038460750132799149
0.3015536367893219 0.19677498936653137 0.032556828111410141
0.36297452449798584 0.19865381717681885 0.02778753824532032
0.42388984560966492 0.20099978148937225 0.025669964030385017
0.48436883091926575 0.20408511161804199 0.025607792660593987
0.54438644647598267 0.20873451232910156 0.026301773265004158
0.60518765449523926 0.2134244292974472 0.027847830206155777
0.66853475570678711 0.21498346328735352 0.029611734673380852
0.73346573114395142 0.21333667635917664 0.030258581042289734
0.79857438802719116 0.20970037579536438 0.030395852401852608
0.86047762632369995 0.20518200099468231 0.031332023441791534
0.90880966186523438 0.2012067586183548 0.03293469175696373
0.042384456843137741 0.22886787354946136 0.090087272226810455
0.062130048871040344 0.23154273629188538 0.079690642654895782
0.093478575348854065 0.23537786304950714 0.067173928022384644
0.13412027060985565 0.24001845717430115 0.055537734180688858
0.18210694193840027 0.24489752948284149 0.045718550682067871
0.23634746670722961 0.24896155297756195 0.037479553371667862
0.29571059346199036 0.25168523192405701 0.029450163245201111
0.35782405734062195 0.25351673364639282 0.02243288978934288
0.42071709036827087 0.25491943955421448 0.018368693068623543
0.48354712128639221 0.25646087527275085 0.017091115936636925
0.54603570699691772 0.25887614488601685 0.017697492614388466
0.60940176248550415 0.260984867811203 0.019712686538696289
0.67451298236846924 0.26124739646911621 0.021786175668239594
0.73955297470092773 0.26063632965087891 0.023038871586322784
0.80349892377853394 0.25949648022651672 0.024457884952425957
0.86415356397628784 0.25750568509101868 0.026273250579833984
0.9116203784942627 0.25531613826751709 0.027872005477547646
0.064309172332286835 0.28442290425300598 0.093652792274951935
0.081572778522968292 0.28699839115142822 0.083924397826194763
0.10828293859958649 0.29082560539245605 0.071945659816265106
0.14296960830688477 0.29565402865409851 0.060122326016426086
0.18538662791252136 0.301078200340271 0.049470730125904083
0.2347242683172226 0.30621668696403503 0.040410052984952927
0.28950431942939758 0.31029039621353149 0.032081488519906998
0.34855678677558899 0.31304755806922913 0.0241575688123703
0.41111445426940918 0.31442463397979736 0.017575973644852638
0.47604110836982727 0.31488621234893799 0.013277721591293812
0.54219698905944824 0.31524571776390076 0.011796822771430016
0.60960596799850464 0.31501546502113342 0.012439881451427937
0.67795979976654053 0.31361919641494751 0.013469225727021694
0.74524682760238647 0.312115877866745 0.014419595710933208
0.81056934595108032 0.31057018041610718 0.016592187806963921
0.87220895290374756 0.30812555551528931 0.019448338076472282
0.92024117708206177 0.305472731590271 0.021681973710656166
0.093413837254047394 0.3416517972946167 0.10167276859283447
0.10678356140851974 0.34403491020202637 0.093074701726436615
