pipeline/data/luts/Leon.cube
# 3D Color LUT 'Q-DDL_Pack_5 / Leon' (http://quickddl.net/free_color_luts)
TITLE "Leon"
LUT_3D_SIZE 5
DOMAIN_MIN 0.0 0.0 0.0
DOMAIN_MAX 1.0 1.0 1.0
0.0075722681358456612 0.013872752897441387 0.020899346098303795
0.18184454739093781 0.053722530603408813 0.08541601151227951
0.40050852298736572 0.10695631057024002 0.1609606146812439
0.66160321235656738 0.11389616876840591 0.11232645809650421
0.8967972993850708 0.10000155866146088 0.066969379782676697
0.06343463808298111 0.22504857182502747 0.10943068563938141
0.2232244461774826 0.24339781701564789 0.13242651522159576
0.42008593678474426 0.27829143404960632 0.17959392070770264
0.6683623194694519 0.29458752274513245 0.12175604701042175
0.90609109401702881 0.2877042293548584 0.07546938955783844
0.12463025003671646 0.47316068410873413 0.20436449348926544
0.2811235785484314 0.47872480750083923 0.20878593623638153
0.46984267234802246 0.49798405170440674 0.22134312987327576
0.69727534055709839 0.51688581705093384 0.15449623763561249
0.92885059118270874 0.51675760746002197 0.10910628736019135
0.159083291888237 0.73099738359451294 0.17814841866493225
0.32045769691467285 0.73223882913589478 0.18152689933776855
0.52493816614151001 0.74001771211624146 0.19304382801055908
0.74297690391540527 0.75264513492584229 0.21637518703937531
0.95828860998153687 0.7562527060508728 0.24975638091564178
0.30936756730079651 0.95921927690505981 0.3050607442855835
0.37438097596168518 0.95899230241775513 0.30458331108093262
0.56485837697982788 0.96127492189407349 0.3026660680770874
0.78614860773086548 0.96832561492919922 0.341991126537323
0.98773688077926636 0.97282451391220093 0.41016632318496704
0.012506428174674511 0.026611825451254845 0.20255991816520691
0.18746091425418854 0.062191132456064224 0.2452990710735321
0.4058622419834137 0.10429377108812332 0.31417083740234375
0.66100382804870605 0.11220322549343109 0.29010039567947388
0.90054678916931152 0.10168895870447159 0.16849969327449799
0.064596638083457947 0.23042228817939758 0.26625806093215942
0.22504690289497375 0.24614904820919037 0.28346553444862366
0.42554125189781189 0.27777189016342163 0.33090823888778687
0.67143559455871582 0.29412034153938293 0.30240705609321594
0.91115468740463257 0.29104822874069214 0.18469241261482239
0.1226334273815155 0.47371780872344971 0.35416746139526367
0.28409615159034729 0.47906550765037537 0.35730674862861633
0.47214910387992859 0.49665772914886475 0.37469941377639771
0.69757562875747681 0.51539736986160278 0.32794126868247986
0.93047106266021729 0.51758164167404175 0.19877800345420837
0.17152409255504608 0.73020625114440918 0.33524763584136963
0.32455387711524963 0.73115408420562744 0.32992720603942871
0.52572375535964966 0.73859524726867676 0.34160742163658142
0.74238121509552002 0.75230318307876587 0.33590003848075867
0.95939838886260986 0.75777655839920044 0.27645140886306763
0.31510549783706665 0.9591672420501709 0.32868668437004089
0.39774638414382935 0.95908153057098389 0.33640587329864502
0.58045715093612671 0.96076375246047974 0.3514353334903717
0.79531103372573853 0.96872925758361816 0.36055845022201538
0.98958253860473633 0.97524857521057129 0.41283351182937622
0.021659743040800095 0.04049290344119072 0.4161665141582489
0.19999414682388306 0.067449122667312622 0.44615957140922546
0.41939863562583923 0.098105043172836304 0.49726825952529907
0.66595160961151123 0.11107885837554932 0.49015334248542786
0.90635126829147339 0.10680074244737625 0.3784061074256897
0.058642778545618057 0.2383403480052948 0.46375206112861633
0.22978413105010986 0.25394353270530701 0.47706827521324158
0.43753480911254883 0.27848717570304871 0.51425731182098389
0.67798370122909546 0.29389405250549316 0.5005190372467041
0.91680538654327393 0.29417073726654053 0.38782340288162231
0.10368736833333969 0.47905448079109192 0.53065240383148193
0.27766832709312439 0.48431780934333801 0.53854411840438843
0.47693243622779846 0.49866011738777161 0.55119109153747559
0.70130175352096558 0.51508110761642456 0.52395445108413696
0.93310165405273438 0.5202600359916687 0.40788766741752625
0.15654297173023224 0.73189687728881836 0.53564620018005371
0.31134405732154846 0.73212069272994995 0.54110246896743774
0.52254801988601685 0.73939806222915649 0.54335331916809082
0.74011683464050293 0.75339269638061523 0.54581224918365479
0.9611518383026123 0.76042324304580688 0.4412224292755127
0.30830690264701843 0.95914101600646973 0.44902271032333374
0.3829476535320282 0.95974355936050415 0.46568089723587036
0.5798267126083374 0.96271979808807373 0.45271426439285278
0.79715150594711304 0.97074776887893677 0.46238824725151062
0.99431240558624268 0.97708505392074585 0.48817810416221619
0.048476081341505051 0.066376723349094391 0.61764919757843018
0.23019970953464508 0.08075840026140213 0.63454484939575195
0.44909259676933289 0.099520191550254822 0.66705811023712158
0.68082964420318604 0.1157025545835495 0.68302595615386963
0.91175472736358643 0.11719963699579239 0.60376596450805664
0.063987612724304199 0.26002830266952515 0.65087193250656128
0.24619129300117493 0.26864767074584961 0.65829813480377197
0.46434229612350464 0.28378099203109741 0.6810869574546814
0.69430947303771973 0.2983667254447937 0.68481606245040894
0.92310911417007446 0.30088046193122864 0.60582834482192993
0.099367246031761169 0.49350246787071228 0.69382786750793457
0.28028851747512817 0.49660694599151611 0.69669622182846069
0.4944227933883667 0.50635838508605957 0.70794790983200073
0.71521496772766113 0.51988750696182251 0.70485979318618774
0.93721991777420044 0.52726370096206665 0.62855517864227295
0.17478227615356445 0.73775291442871094 0.7224162220954895
0.32524648308753967 0.73901939392089844 0.73033756017684937
0.53423935174942017 0.74579232931137085 0.73576396703720093
0.74884754419326782 0.75628459453582764 0.73641306161880493
0.96647876501083374 0.76468014717102051 0.65768700838088989
0.31911957263946533 0.96308976411819458 0.66983544826507568
0.38793021440505981 0.96368151903152466 0.66854453086853027
0.58297175168991089 0.96787405014038086 0.66680705547332764
0.79986625909805298 0.97421222925186157 0.67485320568084717
0.99702531099319458 0.97952336072921753 0.66900801658630371
0.099060378968715668 0.10051245987415314 0.76444339752197266
0.27938124537467957 0.1001254990696907 0.76341420412063599
0.49646428227424622 0.1020454615354538 0.76831573247909546
0.71811759471893311 0.11362461000680923 0.7875751256942749
0.92440766096115112 0.12440653145313263 0.78369492292404175
0.10081078857183456 0.29129332304000854 0.77958536148071289
0.28723880648612976 0.28917482495307922 0.77571821212768555
0.50859361886978149 0.28979581594467163 0.78107291460037231
0.72841393947601318 0.30160209536552429 0.80068540573120117
0.93490433692932129 0.31248381733894348 0.7879561185836792
0.11819329857826233 0.51429098844528198 0.79861712455749512
0.31068664789199829 0.51242679357528687 0.79475152492523193
0.53175592422485352 0.51404684782028198 0.79415053129196167
0.7493898868560791 0.52214908599853516 0.80925184488296509
0.94910836219787598 0.53560721874237061 0.80912947654724121
0.18253758549690247 0.75091594457626343 0.82843530178070068
0.34870478510856628 0.75156909227371216 0.83058488368988037
0.56220763921737671 0.75522172451019287 0.83018374443054199
0.77656757831573486 0.76091718673706055 0.83788180351257324
0.97468233108520508 0.77068579196929932 0.83749383687973022
0.33586156368255615 0.97004175186157227 0.84491783380508423
0.3986421525478363 0.97108453512191772 0.84662145376205444
0.59731513261795044 0.97371941804885864 0.85074442625045776
0.81205892562866211 0.9795340895652771 0.85462462902069092
1 0.98482835292816162 0.85201394557952881
