pipeline/data/luts/Leon.cube
# 3D Color LUT 'Q-DDL_Pack_5 / Leon' (http://quickddl.net/free_color_luts)
TITLE "Leon"
LUT_3D_SIZE 17
DOMAIN_MIN 0.0 0.0 0.0
DOMAIN_MAX 1.0 1.0 1.0
0.0075722681358456612 0.013872752897441387 0.020899346098303795
0.040827080607414246 0.020047683268785477 0.030157733708620071
0.084621317684650421 0.029054250568151474 0.04465741291642189
0.13232977688312531 0.040366925299167633 0.06338704377412796
0.18184454739093781 0.053722530603408813 0.08541601151227951
0.23292325437068939 0.06839674711227417 0.10925649851560593
0.28599289059638977 0.083186611533164978 0.13233625888824463
0.34167453646659851 0.096568465232849121 0.1509324312210083
0.40050852298736572 0.10695631057024002 0.1609606146812439
0.46264192461967468 0.11337671428918839 0.1599959135055542
0.52759408950805664 0.11606322973966599 0.1490597277879715
0.59435343742370605 0.11592978239059448 0.13168704509735107
0.66160321235656738 0.11389616876840591 0.11232645809650421
0.72796332836151123 0.11069577187299728 0.095091775059700012
0.79210591316223145 0.10691347718238831 0.082062102854251862
0.85131394863128662 0.10308501869440079 0.072893053293228149
0.8967972993850708 0.10000155866146088 0.066969379782676697
0.017212970182299614 0.054168831557035446 0.035895053297281265
0.049935080111026764 0.059505101293325424 0.043557815253734589
0.092970982193946838 0.067382261157035828 0.055874302983283997
0.13976925611495972 0.077498108148574829 0.072292543947696686
0.18825487792491913 0.089730121195316315 0.092208780348300934
0.23823311924934387 0.10340530425310135 0.11433286964893341
0.29019352793693542 0.11734907329082489 0.13612310588359833
0.34483316540718079 0.13011379539966583 0.1537950336933136
0.40277200937271118 0.14026845991611481 0.16327470541000366
0.46420672535896301 0.14693070948123932 0.16211925446987152
0.52865868806838989 0.15017208456993103 0.1510528028011322
0.59509193897247314 0.15066777169704437 0.13332828879356384
0.66219472885131836 0.14919759333133698 0.11332881450653076
0.7286342978477478 0.14645591378211975 0.095308706164360046
0.79305559396743774 0.14303910732269287 0.081796810030937195
0.85260188579559326 0.13950353860855103 0.072821110486984253
0.89834922552108765 0.13663686811923981 0.067433364689350128
0.030734265223145485 0.1071394756436348 0.057041019201278687
0.062764823436737061 0.11146710813045502 0.062701761722564697
0.10482229292392731 0.1179322674870491 0.072147481143474579
0.15046951174736023 0.12643124163150787 0.085337087512016296
0.19767168164253235 0.13698504865169525 0.10213299095630646
0.2462494820356369 0.14906343817710876 0.12164359539747238
0.29673224687576294 0.16161820292472839 0.14148838818073273
0.34990993142127991 0.17335668206214905 0.15784141421318054
0.40653637051582336 0.18306408822536469 0.16658024489879608
0.46691057085990906 0.18996438384056091 0.16514132916927338
0.53056180477142334 0.19392575323581696 0.15388281643390656
0.59642785787582397 0.1952999085187912 0.13568830490112305
0.66322112083435059 0.19464434683322906 0.11481226980686188
0.72966927289962769 0.19256407022476196 0.095754772424697876
0.79438108205795288 0.18965175747871399 0.081759914755821228
0.85432976484298706 0.1864948570728302 0.073334135115146637
0.9004092812538147 0.18389539420604706 0.068939879536628723
0.046432554721832275 0.16498926281929016 0.08186204731464386
0.077781610190868378 0.16836479306221008 0.085654981434345245
0.11889390647411346 0.17343448102474213 0.092260628938674927
0.16345249116420746 0.18022085726261139 0.10199914872646332
0.20943820476531982 0.18886186182498932 0.11521413922309875
0.25662773847579956 0.19902598857879639 0.13159394264221191
0.30554682016372681 0.20987735688686371 0.14909203350543976
0.35707581043243408 0.22033873200416565 0.16389158368110657
0.41213920712471008 0.22941818833351135 0.1717296838760376
0.47118780016899109 0.23643083870410919 0.16979259252548218
0.53377699851989746 0.24106155335903168 0.15810398757457733
0.59883511066436768 0.24334904551506042 0.13923883438110352
0.66511714458465576 0.24359692633152008 0.11734452098608017
0.73140615224838257 0.24226857721805573 0.097212910652160645
0.79627251625061035 0.23991316556930542 0.082821734249591827
0.85653579235076904 0.2371419221162796 0.075105257332324982
0.9029049277305603 0.23479285836219788 0.071863815188407898
0.06343463808298111 0.22504857182502747 0.10943068563938141
0.094196416437625885 0.22759445011615753 0.1117817685008049
0.13452960550785065 0.2314041405916214 0.11605735123157501
0.17822013795375824 0.23659306764602661 0.12271908670663834
0.2232244461774826 0.24339781701564789 0.13242651522159576
0.2692294716835022 0.25166672468185425 0.14542977511882782
0.31672492623329163 0.26079252362251282 0.16016504168510437
0.36665618419647217 0.26993289589881897 0.17300273478031158
0.42008593678474426 0.27829143404960632 0.17959392070770264
0.47760921716690063 0.28525248169898987 0.17683787643909454
0.53886330127716064 0.29037636518478394 0.16442807018756866
0.60283833742141724 0.29346492886543274 0.14469771087169647
0.6683623194694519 0.29458752274513245 0.12175604701042175
0.73426806926727295 0.29403069615364075 0.1006120964884758
0.799091637134552 0.29224628210067749 0.085641607642173767
0.85952156782150269 0.28984096646308899 0.078079469501972198
0.90609109401702881 0.2877042293548584 0.07546938955783844
0.081057503819465637 0.28627631068229675 0.13883788883686066
0.11130820214748383 0.28813385963439941 0.14024321734905243
0.15101486444473267 0.29087918996810913 0.14291374385356903
0.19407106935977936 0.29470628499984741 0.14729571342468262
0.23838558793067932 0.29993796348571777 0.15404391288757324
0.28353261947631836 0.30656594038009644 0.16365054249763489
0.32993507385253906 0.31417596340179443 0.17514204978942871
0.37854266166687012 0.32212692499160767 0.18543842434883118
0.43046236038208008 0.32977038621902466 0.1903156191110611
0.48637273907661438 0.33654135465621948 0.18641224503517151
0.54607045650482178 0.34195086359977722 0.17300495505332947
0.60871106386184692 0.34566399455070496 0.15214718878269196
0.67323946952819824 0.34756439924240112 0.12794031202793121
0.73854243755340576 0.34775307774543762 0.10555367916822433
0.80313199758529663 0.34654411673545837 0.089519210159778595
0.86358392238616943 0.34450650215148926 0.08130326122045517
0.91026139259338379 0.3425726592540741 0.078592628240585327
0.09833892434835434 0.34809720516204834 0.16778363287448883
0.12809282541275024 0.34942564368247986 0.16856527328491211
0.16726700961589813 0.35134878754615784 0.17020285129547119
0.20991437137126923 0.35411038994789124 0.1731141060590744
0.25387662649154663 0.35810253024101257 0.17765036225318909
0.29857337474822998 0.36343309283256531 0.18417647480964661
0.34431472420692444 0.36982691287994385 0.1923433393239975
0.39198699593544006 0.37678492069244385 0.19991075992584229
0.44266718626022339 0.38376766443252563 0.20294803380966187
0.49707889556884766 0.39026296138763428 0.19781762361526489
0.5551983118057251 0.39578783512115479 0.18329685926437378
0.61639904975891113 0.39994645118713379 0.16107816994190216
0.67978352308273315 0.4024931788444519 0.13524828851222992
0.74431729316711426 0.40336039662361145 0.11125992983579636
0.80850940942764282 0.40270936489105225 0.093997694551944733
0.86884325742721558 0.40104329586029053 0.085170857608318329
0.91552925109863281 0.39931404590606689 0.082429535686969757
0.11358187347650528 0.41032114624977112 0.19162625074386597
0.14290502667427063 0.41128247976303101 0.19191482663154602
0.18175125122070312 0.41263687610626221 0.19284646213054657
0.22436505556106567 0.41463431715965271 0.19486850500106812
0.26846855878829956 0.417706698179245 0.19790861010551453
0.31325522065162659 0.42204976081848145 0.20204305648803711
0.3588746190071106 0.42748233675956726 0.20749501883983612
0.40610378980636597 0.43360447883605957 0.21289977431297302
0.45594778656959534 0.43996790051460266 0.21470029652118683
0.5091559886932373 0.44612467288970947 0.20898762345314026
0.56586486101150513 0.45162412524223328 0.19397842884063721
0.62567001581192017 0.4560539722442627 0.17088708281517029
0.68785929679870605 0.45908939838409424 0.143766850233078
0.75150889158248901 0.46052899956703186 0.11858304589986801
0.81515616178512573 0.46038442850112915 0.10096404701471329
0.87522268295288086 0.45907220244407654 0.092827595770359039
0.92179882526397705 0.45754137635231018 0.091136716306209564
0.12463025003671646 0.47316068410873413 0.20436449348926544
0.15385134518146515 0.47387844324111938 0.20442953705787659
0.19292204082012177 0.47486001253128052 0.20505191385746002
0.23616997897624969 0.47633236646652222 0.20662760734558105
0.2811235785484314 0.47872480750083923 0.20878593623638153
0.32671725749969482 0.48228120803833008 0.211440309882164
0.37290665507316589 0.48689302802085876 0.21523767709732056
0.42031779885292053 0.49224799871444702 0.21954925358295441
0.46984267234802246 0.49798405170440674 0.22134312987327576
0.52222961187362671 0.50372004508972168 0.21663330495357513
0.57776689529418945 0.50904613733291626 0.20300324261188507
0.63628464937210083 0.51355540752410889 0.18097664415836334
0.69727534055709839 0.51688581705093384 0.15449623763561249
0.75994724035263062 0.51874923706054688 0.13007007539272308
0.82289731502532959 0.51903694868087769 0.11409076303243637
0.88252437114715576 0.5180702805519104 0.10849498957395554
0.92885059118270874 0.51675760746002197 0.10910628736019135
0.13083799183368683 0.53687006235122681 0.20301000773906708
0.16045203804969788 0.5374150276184082 0.20335850119590759
0.2004692554473877 0.53813660144805908 0.20422244071960449
0.24508766829967499 0.53923177719116211 0.20568843185901642
0.29158800840377808 0.54108518362045288 0.20737354457378387
0.33868345618247986 0.54394429922103882 0.20935779809951782
0.38612905144691467 0.54777175188064575 0.21248193085193634
0.43436449766159058 0.55235171318054199 0.21664077043533325
0.48411396145820618 0.55740612745285034 0.21962054073810577
0.53607177734375 0.56261420249938965 0.21781893074512482
0.590678870677948 0.56760460138320923 0.20820644497871399
0.64802426099777222 0.57198655605316162 0.1904091089963913
0.70781868696212769 0.57538986206054688 0.16807417571544647
0.76941269636154175 0.57749330997467041 0.14780822396278381
0.83148372173309326 0.57812792062759399 0.1359887570142746
0.89045637845993042 0.57752752304077148 0.13421760499477386
0.93636018037796021 0.57649111747741699 0.13759717345237732
0.13498088717460632 0.60138314962387085 0.19161048531532288
0.16510505974292755 0.60179042816162109 0.19254599511623383
0.20628134906291962 0.60230010747909546 0.19398610293865204
0.25247931480407715 0.60308372974395752 0.19548805058002472
0.30072388052940369 0.6044648289680481 0.19680985808372498
0.349559485912323 0.60666781663894653 0.19842492043972015
0.3985784649848938 0.6097179651260376 0.20126080513000488
0.448038250207901 0.61349672079086304 0.20556685328483582
0.4984414279460907 0.61780768632888794 0.21014484763145447
0.55034416913986206 0.62238651514053345 0.21225476264953613
0.60428863763809204 0.62689995765686035 0.20859628915786743
0.66060113906860352 0.63097918033599854 0.19796103239059448
0.71920555830001831 0.63426542282104492 0.18333451449871063
0.77960479259490967 0.63644540309906006 0.1705537885427475
0.84058111906051636 0.63734394311904907 0.16491353511810303
0.89864063262939453 0.6371193528175354 0.16738496720790863
0.94391506910324097 0.63640570640563965 0.17320491373538971
0.14242599904537201 0.6662895679473877 0.17967472970485687
0.17240482568740845 0.66658192873001099 0.18112869560718536
0.21385625004768372 0.66690433025360107 0.18300527334213257
0.26073700189590454 0.66740787029266357 0.18432103097438812
0.3099704384803772 0.66836076974868774 0.18502974510192871
0.36000221967697144 0.66995716094970703 0.18608748912811279
0.41031119227409363 0.67226481437683105 0.18848927319049835
0.46099394559860229 0.67524904012680054 0.19264635443687439
0.5122789740562439 0.67879027128219604 0.19830136001110077
0.56446951627731323 0.68268197774887085 0.2038642019033432
0.61808335781097412 0.68663370609283447 0.20632685720920563
0.67358064651489258 0.69030863046646118 0.20403359830379486
0.731056809425354 0.69337177276611328 0.19893614947795868
0.79017674922943115 0.6955338716506958 0.19527973234653473
0.84986269474029541 0.69662785530090332 0.19665910303592682
0.90676414966583252 0.69674313068389893 0.20331758260726929
0.95120787620544434 0.69634485244750977 0.21109725534915924
0.159083291888237 0.73099738359451294 0.17814841866493225
0.18728421628475189 0.73120898008346558 0.17963677644729614
0.22675806283950806 0.73138463497161865 0.18129509687423706
0.27207502722740173 0.73165273666381836 0.18186022341251373
0.32045769691467285 0.73223882913589478 0.18152689933776855
0.37037414312362671 0.73330914974212646 0.18171662092208862
0.42117366194725037 0.73495715856552124 0.18346969783306122
0.47273525595664978 0.73721140623092651 0.1871396005153656
0.52493816614151001 0.74001771211624146 0.19304382801055908
0.57772332429885864 0.74322700500488281 0.20064103603363037
0.63141369819641113 0.74659925699234009 0.20768238604068756
0.68643736839294434 0.7498399019241333 0.21260741353034973
0.74297690391540527 0.75264513492584229 0.21637518703937531
0.80085456371307373 0.75474846363067627 0.22139346599578857
0.8591722846031189 0.75598412752151489 0.22947552800178528
0.91478568315505981 0.7563788890838623 0.24013364315032959
0.95828860998153687 0.7562527060508728 0.24975638091564178
0.18847459554672241 0.79488450288772583 0.19441048800945282
0.21258550882339478 0.79506170749664307 0.19527190923690796
0.24691292643547058 0.79514777660369873 0.19600732624530792
0.28751936554908752 0.79524028301239014 0.19547079503536224
0.33252847194671631 0.79553812742233276 0.19397348165512085
0.38066133856773376 0.79619300365447998 0.19313539564609528
0.43101879954338074 0.79731124639511108 0.19407379627227783
0.48302331566810608 0.79895824193954468 0.19710204005241394
0.53607571125030518 0.80112642049789429 0.20265710353851318
0.5896991491317749 0.80371773242950439 0.2107103168964386
0.64386904239654541 0.80654788017272949 0.21995490789413452
0.69881433248519897 0.80937200784683228 0.22940340638160706
0.75471317768096924 0.81192201375961304 0.23944598436355591
0.81152230501174927 0.81394976377487183 0.25103527307510376
0.86854642629623413 0.81528294086456299 0.26452857255935669
0.92289054393768311 0.81589388847351074 0.27873453497886658
0.96545416116714478 0.81598639488220215 0.29021146893501282
0.22871209681034088 0.85707563161849976 0.22754485905170441
0.2469639927148819 0.85724091529846191 0.22779817879199982
0.27355054020881653 0.85727167129516602 0.22777730226516724
0.30670103430747986 0.85723507404327393 0.22664235532283783
0.34608888626098633 0.85732018947601318 0.22449328005313873
0.39106118679046631 0.85768139362335205 0.22265198826789856
0.4403156042098999 0.85842466354370117 0.22244530916213989
0.49245843291282654 0.85962080955505371 0.22453057765960693
0.54623949527740479 0.86128556728363037 0.22934481501579285
0.60074502229690552 0.86336356401443481 0.23689121007919312
0.65557277202606201 0.86572539806365967 0.2464866042137146
0.71069157123565674 0.8681788444519043 0.25772634148597717
0.76621377468109131 0.87049216032028198 0.27088508009910583
0.82218718528747559 0.87243366241455078 0.28619754314422607
0.87810057401657104 0.87382328510284424 0.30315518379211426
0.9313085675239563 0.87458997964859009 0.31997910141944885
0.97301620244979858 0.87484782934188843 0.33303487300872803
0.27300631999969482 0.91480553150177002 0.26922330260276794
0.28507146239280701 0.91495740413665771 0.26943948864936829
0.30324673652648926 0.9149438738822937 0.269471675157547
0.32802370190620422 0.91481196880340576 0.26867532730102539
0.3609253466129303 0.91475367546081543 0.26661917567253113
0.4021817147731781 0.91493320465087891 0.26399677991867065
0.44999828934669495 0.915444016456604 0.26249092817306519
0.50199198722839355 0.91634035110473633 0.26344534754753113
0.55620813369750977 0.9176439642906189 0.2674345076084137
0.61133503913879395 0.9193311333656311 0.27430036664009094
0.66666936874389648 0.92132019996643066 0.28347057104110718
0.72196251153945923 0.9234660267829895 0.29476693272590637
0.77724319696426392 0.92557060718536377 0.30858510732650757
0.83259600400924683 0.92741769552230835 0.32510519027709961
0.88763749599456787 0.92882394790649414 0.34355083107948303
0.93992280960083008 0.92968791723251343 0.3617817759513855
0.98092138767242432 0.9300580620765686 0.37583291530609131
0.30936756730079651 0.95921927690505981 0.3050607442855835
0.31674101948738098 0.95935887098312378 0.30560502409934998
0.32846397161483765 0.95931679010391235 0.30617636442184448
0.34668201208114624 0.95912891626358032 0.30616298317909241
0.37438097596168518 0.95899230241775513 0.30458331108093262
0.41255995631217957 0.95907944440841675 0.3015572726726532
0.45901629328727722 0.95946806669235229 0.29912078380584717
0.51060390472412109 0.96019303798675537 0.29923915863037109
0.56485837697982788 0.96127492189407349 0.3026660680770874
0.62019592523574829 0.96270972490310669 0.30908879637718201
0.67572438716888428 0.96444803476333618 0.31779742240905762
0.73105549812316895 0.96637773513793945 0.32858744263648987
0.78614860773086548 0.96832561492919922 0.341991126537323
0.84108871221542358 0.97008860111236572 0.35838702321052551
0.89555460214614868 0.97148382663726807 0.37705206871032715
0.94722145795822144 0.97239291667938232 0.39571389555931091
0.98773688077926636 0.97282451391220093 0.41016632318496704
0.0078993160277605057 0.016230689361691475 0.055404018610715866
0.04114096611738205 0.022342491894960403 0.063791342079639435
0.084921613335609436 0.031259141862392426 0.077142007648944855
0.13263702392578125 0.042430166155099869 0.094775699079036713
0.18218684196472168 0.055577632039785385 0.11596227437257767
0.23331081867218018 0.070012569427490234 0.13931670784950256
0.2864118218421936 0.084571182727813721 0.16230930387973785
0.34208664298057556 0.097750470042228699 0.18122349679470062
0.40085089206695557 0.10797430574893951 0.19194342195987701
0.46284040808677673 0.11426562815904617 0.19191054999828339
0.52759253978729248 0.11684229969978333 0.18184554576873779
0.59414917230606079 0.11660191416740417 0.16476850211620331
0.66128754615783691 0.11447064578533173 0.14436160027980804
0.7277405858039856 0.11121580004692078 0.12382856756448746
0.79218906164169312 0.10746359080076218 0.10486115515232086
0.85177648067474365 0.10376238822937012 0.088085971772670746
0.89755761623382568 0.10084062814712524 0.075569890439510345
0.017372917383909225 0.056219428777694702 0.069549664855003357
0.050084520131349564 0.061469003558158875 0.076457232236862183
0.093101240694522858 0.069221019744873047 0.087777070701122284
0.13989472389221191 0.079154476523399353 0.10323956608772278
0.18841615319252014 0.09114963561296463 0.12240319699048996
0.23847194015979767 0.10459743440151215 0.14406499266624451
0.2905275821685791 0.11836445331573486 0.16575318574905396
0.34523612260818481 0.13099825382232666 0.1837407648563385
0.40316912531852722 0.14105015993118286 0.19395531713962555
0.46450108289718628 0.14762264490127563 0.19382144510746002
0.52878266572952271 0.15077689290046692 0.18373051285743713
0.59504604339599609 0.15118525922298431 0.16639252007007599
0.66206860542297363 0.14964225888252258 0.14544162154197693
0.72860109806060791 0.14687557518482208 0.12430510669946671
0.79328793287277222 0.14351567625999451 0.1051812469959259
0.85316330194473267 0.14012274146080017 0.089046962559223175
0.89917111396789551 0.13742059469223022 0.077498257160186768
0.030717272311449051 0.10882072150707245 0.089342862367630005
0.062743254005908966 0.11301326751708984 0.094441108405590057
0.10478018224239349 0.1192830353975296 0.10315703600645065
0.15040916204452515 0.12753146886825562 0.11564536392688751
0.19764150679111481 0.13781802356243134 0.13185542821884155
0.24633263051509857 0.14970406889915466 0.15094353258609772
0.2969934344291687 0.16217376291751862 0.17064447700977325
0.35034111142158508 0.17389014363288879 0.18728172779083252
0.40704348683357239 0.18358379602432251 0.19679278135299683
0.4673590362071991 0.19044865667819977 0.19648492336273193
0.53086555004119873 0.19435440003871918 0.18633835017681122
0.59659254550933838 0.19567020237445831 0.16866210103034973
0.66333508491516113 0.19497857987880707 0.14699208736419678
0.72987258434295654 0.19291549921035767 0.12507955729961395
0.7948029637336731 0.19009637832641602 0.10585903376340866
0.85502064228057861 0.18710045516490936 0.090742319822311401
0.90131491422653198 0.18466633558273315 0.08060772716999054
0.04627266526222229 0.16633591055870056 0.11256273090839386
0.077639251947402954 0.16951867938041687 0.11601997166872025
0.11875444650650024 0.17431153357028961 0.12222450971603394
0.16330136358737946 0.18077725172042847 0.13158529996871948
0.20931626856327057 0.1891310065984726 0.14442873001098633
0.25664657354354858 0.19914942979812622 0.16042836010456085
0.30581057071685791 0.21001175045967102 0.17771829664707184
0.35759106278419495 0.22055822610855103 0.19275818765163422
0.41279116272926331 0.22971037030220032 0.20140936970710754
0.47180163860321045 0.23674094676971436 0.20072346925735474
0.53425109386444092 0.24135054647922516 0.19028663635253906
0.59918481111526489 0.24361476302146912 0.17206484079360962
0.66543412208557129 0.24386931955814362 0.14951497316360474
0.73180866241455078 0.24260272085666656 0.12672662734985352
0.79685860872268677 0.240374356508255 0.10734720528125763
0.85734301805496216 0.2377779483795166 0.093167744576931
0.90388888120651245 0.23559215664863586 0.08436652272939682
0.06315169483423233 0.22613449394702911 0.13859088718891144
0.093988209962844849 0.22844691574573517 0.14081683754920959
0.13439998030662537 0.23192654550075531 0.14500236511230469
0.17813606560230255 0.23675996065139771 0.15158833563327789
0.22319565713405609 0.24328045547008514 0.16112010180950165
0.26935198903083801 0.2514386773109436 0.17378613352775574
0.31709879636764526 0.26062765717506409 0.18828783929347992
0.36728277802467346 0.26990923285484314 0.20139306783676147
0.4208427369594574 0.27839034795761108 0.20889203250408173
0.47831445932388306 0.28540876507759094 0.20750287175178528
0.53942358493804932 0.29054713249206543 0.1964276134967804
0.60328501462936401 0.29365181922912598 0.17736966907978058
0.66879278421401978 0.29482311010360718 0.15376624464988708
0.73478686809539795 0.29436323046684265 0.12995830178260803
0.79977434873580933 0.2927238941192627 0.11000765115022659
0.86039280891418457 0.29049256443977356 0.09598812460899353
0.90710991621017456 0.28850850462913513 0.087805896997451782
0.080679729580879211 0.28715589642524719 0.16681525111198425
0.11110088229179382 0.28877028822898865 0.16825868189334869
0.15101592242717743 0.2911791205406189 0.17106296122074127
0.19422721862792969 0.29466530680656433 0.17555513978004456
0.2386518269777298 0.29964238405227661 0.18223586678504944
0.28393715620040894 0.30617660284042358 0.19157092273235321
0.33051782846450806 0.31384584307670593 0.20292761921882629
0.37927263975143433 0.32192909717559814 0.21365995705127716
0.43122971057891846 0.32969743013381958 0.21961338818073273
0.48704445362091064 0.33654671907424927 0.21715719997882843
0.54659527540206909 0.34200501441955566 0.20506113767623901
0.60914134979248047 0.34577229619026184 0.18476885557174683
0.67367583513259888 0.34775412082672119 0.15973354876041412
0.73907780647277832 0.34805616736412048 0.13448779284954071
0.80382096767425537 0.34698498249053955 0.11329623311758041
0.86443394422531128 0.34509426355361938 0.098487891256809235
0.91123199462890625 0.34328299760818481 0.090110711753368378
0.097992889583110809 0.3487548828125 0.19523702561855316
0.12802065908908844 0.34986528754234314 0.19615362584590912
0.16753517091274261 0.35149428248405457 0.19802415370941162
0.21044726669788361 0.35397124290466309 0.20109857618808746
0.25456824898719788 0.35775706171989441 0.20560900866985321
0.2993634045124054 0.36300301551818848 0.21198007464408875
