pipeline/data/luts/Lopez.cube
# 3D Color LUT 'Q-DDL_Pack_5 / Lopez' (http://quickddl.net/free_color_luts)
TITLE "Lopez"
LUT_3D_SIZE 17
DOMAIN_MIN 0.0 0.0 0.0
DOMAIN_MAX 1.0 1.0 1.0
0.017549309879541397 0.058197494596242905 0.0599200539290905
0.038409475237131119 0.056577228009700775 0.053852062672376633
0.073089070618152618 0.053175792098045349 0.04291871190071106
0.12242823839187622 0.051183175295591354 0.030544569715857506
0.18675518035888672 0.058321233838796616 0.024641549214720726
0.26203927397727966 0.073940940201282501 0.024132594466209412
0.3426969051361084 0.092744022607803345 0.026086950674653053
0.42116457223892212 0.1104729101061821 0.031393092125654221
0.49208590388298035 0.1271444708108902 0.04171324148774147
0.554268479347229 0.14224684238433838 0.057142671197652817
0.61000430583953857 0.15384469926357269 0.073664002120494843
0.66099578142166138 0.16083584725856781 0.088610738515853882
0.70770382881164551 0.16475899517536163 0.1017797589302063
0.748909592628479 0.1672404557466507 0.11153321713209152
0.78421270847320557 0.16823060810565948 0.11667896062135696
0.81410402059555054 0.16696663200855255 0.11836212873458862
0.83533257246017456 0.16450245678424835 0.11837060004472733
0.013994580134749413 0.074247501790523529 0.068622618913650513
0.034018583595752716 0.073804289102554321 0.062110088765621185
0.068438053131103516 0.072340816259384155 0.051347583532333374
0.11843735724687576 0.072281390428543091 0.039172399789094925
0.1844877302646637 0.079505816102027893 0.03152480348944664
0.26360350847244263 0.094710089266300201 0.029098296537995338
0.34607356786727905 0.11382982134819031 0.030734611675143242
0.42336583137512207 0.1331365555524826 0.038019180297851562
0.4921317994594574 0.15090484917163849 0.050391826778650284
0.55432766675949097 0.166275754570961 0.065447434782981873
0.6112634539604187 0.17833468317985535 0.079976163804531097
0.66281634569168091 0.18639755249023438 0.093293681740760803
0.7092444896697998 0.19164033234119415 0.10585498064756393
0.75023818016052246 0.1950405091047287 0.11585720628499985
0.78540009260177612 0.19613628089427948 0.12163540720939636
0.81476318836212158 0.19506809115409851 0.12394211441278458
0.83518344163894653 0.19324713945388794 0.12451548129320145
0.0088142948225140572 0.097981482744216919 0.080998815596103668
0.027714213356375694 0.09904121607542038 0.074951350688934326
0.061142832040786743 0.10010690987110138 0.065487422049045563
0.11182375997304916 0.10293873399496078 0.054772209376096725
0.18016032874584198 0.11136262863874435 0.046879664063453674
0.26282647252082825 0.12665370106697083 0.04322853684425354
0.34914270043373108 0.14587558805942535 0.043210018426179886
0.42819008231163025 0.16591329872608185 0.049324747174978256
0.49659433960914612 0.18437224626541138 0.060999710112810135
0.55852395296096802 0.20048105716705322 0.074182994663715363
0.61538839340209961 0.21367582678794861 0.086216375231742859
0.66646295785903931 0.22309474647045135 0.098149068653583527
0.71220672130584717 0.22964835166931152 0.11047592014074326
0.75288844108581543 0.2339969128370285 0.12100182473659515
0.78774213790893555 0.23555618524551392 0.12762732803821564
0.81634104251861572 0.23489253222942352 0.13067133724689484
0.83585739135742188 0.23364131152629852 0.1317601352930069
0.0078431377187371254 0.12769749760627747 0.093864776194095612
0.024506332352757454 0.13029000163078308 0.089737072587013245
0.055412013083696365 0.13385844230651855 0.083096444606781006
0.10528799891471863 0.13966947793960571 0.075348824262619019
0.17523576319217682 0.15006478130817413 0.069148950278759003
0.26067793369293213 0.16614454984664917 0.065520703792572021
0.35056686401367188 0.18582011759281158 0.063925497233867645
0.4325440526008606 0.20648634433746338 0.066607654094696045
0.50281983613967896 0.22564443945884705 0.07392612099647522
0.56569421291351318 0.24256935715675354 0.082714453339576721
0.62252175807952881 0.25673365592956543 0.092298999428749084
0.67311882972717285 0.26700600981712341 0.10372059792280197
0.7184179425239563 0.27417591214179993 0.11607033759355545
0.75853359699249268 0.27880564332008362 0.12669914960861206
0.79235708713531494 0.28049394488334656 0.13353297114372253
0.81969732046127319 0.28010210394859314 0.1368807852268219
0.83817219734191895 0.27917924523353577 0.13823626935482025
0.015519437380135059 0.16352733969688416 0.10879984498023987
0.029698420315980911 0.16792896389961243 0.10725561529397964
0.057050302624702454 0.17439045011997223 0.10426776111125946
0.10408908873796463 0.18329505622386932 0.10096199810504913
0.17322857677936554 0.1958547979593277 0.098030902445316315
0.26018750667572021 0.21327665448188782 0.095824562013149261
0.35277929902076721 0.23372957110404968 0.0937514528632164
0.4377349317073822 0.25476282835006714 0.092434093356132507
0.51112073659896851 0.27434849739074707 0.09316631406545639
0.57609111070632935 0.29172605276107788 0.095913022756576538
0.63356679677963257 0.30637732148170471 0.10289248079061508
0.68469142913818359 0.3170846700668335 0.11336580663919449
0.73034965991973877 0.32433813810348511 0.12474710494279861
0.76948612928390503 0.32835832238197327 0.1341981440782547
0.80092382431030273 0.32909461855888367 0.14003086090087891
0.82592523097991943 0.32821282744407654 0.1429152637720108
0.84282124042510986 0.327187180519104 0.14419858157634735
0.031656738370656967 0.2045312225818634 0.12656348943710327
0.04490092396736145 0.21093928813934326 0.12732098996639252
0.069788530468940735 0.22072616219520569 0.1281941831111908
0.11299063265323639 0.23305577039718628 0.13034062087535858
0.17862029373645782 0.2483936995267868 0.13281054794788361
0.2643132209777832 0.26764488220214844 0.13398902118206024
0.35797160863876343 0.28882843255996704 0.13279061019420624
0.44550800323486328 0.30975812673568726 0.12961384654045105
0.52237784862518311 0.32923400402069092 0.12550058960914612
0.5893746018409729 0.34645184874534607 0.12271608412265778
0.64767390489578247 0.3608396053314209 0.12488224357366562
0.70010042190551758 0.37158378958702087 0.13117703795433044
0.74680566787719727 0.37862464785575867 0.13844576478004456
0.78494769334793091 0.38150006532669067 0.14465279877185822
0.81377911567687988 0.38073286414146423 0.14868186414241791
0.8359227180480957 0.37874865531921387 0.15070736408233643
0.85071855783462524 0.37718477845191956 0.15161468088626862
0.055676694959402084 0.24991613626480103 0.1451556533575058
0.069926232099533081 0.25736695528030396 0.14823241531848907
0.09479166567325592 0.26911482214927673 0.15289351344108582
0.13533806800842285 0.28420710563659668 0.16008740663528442
0.19636400043964386 0.30260461568832397 0.1684277355670929
0.27696260809898376 0.32417970895767212 0.17481051385402679
0.36728039383888245 0.34654650092124939 0.17695093154907227
0.45450511574745178 0.36765557527542114 0.17456628382205963
0.5333361029624939 0.38669285178184509 0.16859190165996552
0.60205936431884766 0.40314874053001404 0.16184423863887787
0.66164743900299072 0.41666999459266663 0.15767168998718262
0.71580874919891357 0.42709469795227051 0.15686792135238647
0.76387369632720947 0.43386811017990112 0.15749797224998474
0.80172711610794067 0.43584287166595459 0.1591835618019104
0.82909208536148071 0.43407672643661499 0.16121000051498413
0.84914153814315796 0.43128463625907898 0.1624549925327301
0.86202389001846313 0.42918482422828674 0.16287192702293396
0.083864375948905945 0.297748863697052 0.16307713091373444
0.10063184797763824 0.30499500036239624 0.16823810338973999
0.128144770860672 0.31658601760864258 0.17581433057785034
0.16952750086784363 0.33246675133705139 0.18615017831325531
0.22795276343822479 0.35263904929161072 0.19843238592147827
0.30172380805015564 0.37603276968002319 0.20983482897281647
0.38395673036575317 0.39993876218795776 0.21693442761898041
0.46582493185997009 0.42186254262924194 0.21742857992649078
0.54283356666564941 0.44078820943832397 0.21169428527355194
0.61195999383926392 0.45671513676643372 0.20311637222766876
0.67313647270202637 0.46974030137062073 0.19483731687068939
0.7290920615196228 0.48017969727516174 0.18789871037006378
0.77847886085510254 0.48701396584510803 0.18199126422405243
0.81712102890014648 0.48896545171737671 0.1786106675863266
0.84443938732147217 0.48724955320358276 0.17789813876152039
0.86352813243865967 0.48443913459777832 0.17772965133190155
0.87525570392608643 0.48222923278808594 0.17721058428287506
0.1114145964384079 0.34716477990150452 0.17928627133369446
0.13097588717937469 0.35358470678329468 0.1857273131608963
0.16198985278606415 0.36387971043586731 0.19492001831531525
0.20575600862503052 0.37848269939422607 0.20670531690120697
0.26304891705513 0.39790710806846619 0.22088196873664856
0.33091172575950623 0.42068260908126831 0.23531074821949005
0.40454202890396118 0.44451126456260681 0.24642503261566162
0.47949913144111633 0.4671904444694519 0.25041154026985168
0.55249625444412231 0.48732158541679382 0.24690385162830353
0.62017220258712769 0.50453776121139526 0.23907659947872162
0.6821557879447937 0.5186004638671875 0.22981521487236023
0.73946619033813477 0.52982825040817261 0.21974307298660278
0.79020249843597412 0.53708761930465698 0.20908960700035095
0.83053392171859741 0.53971922397613525 0.20105130970478058
0.85911506414413452 0.5388866662979126 0.19705812633037567
0.87843239307403564 0.53673475980758667 0.19471168518066406
0.88970011472702026 0.53482848405838013 0.19287858903408051
0.13551485538482666 0.39758667349815369 0.19275088608264923
0.15799528360366821 0.4029768705368042 0.19983510673046112
0.19239859282970428 0.41151541471481323 0.20966671407222748
0.23764674365520477 0.42360225319862366 0.2215888500213623
0.29330644011497498 0.44025078415870667 0.23588927090167999
0.35640674829483032 0.46003979444503784 0.25095495581626892
0.42391395568847656 0.48154085874557495 0.26349413394927979
0.49392879009246826 0.50377702713012695 0.26991504430770874
0.56346368789672852 0.52532690763473511 0.26979002356529236
0.62900680303573608 0.54512590169906616 0.26508802175521851
0.69044584035873413 0.56225717067718506 0.25793051719665527
0.74805456399917603 0.5760420560836792 0.24804019927978516
0.79991978406906128 0.58475369215011597 0.2351386547088623
0.84258425235748291 0.58854299783706665 0.22360782325267792
0.87390565872192383 0.58876770734786987 0.2164977490901947
0.8948512077331543 0.58727365732192993 0.21191012859344482
0.90611517429351807 0.58559024333953857 0.2089773565530777
0.15563766658306122 0.4478093683719635 0.20307581126689911
0.18112783133983612 0.45224449038505554 0.21052293479442596
0.21853981912136078 0.45901024341583252 0.22044166922569275
0.26430389285087585 0.4682672917842865 0.23162756860256195
0.31757092475891113 0.48116329312324524 0.24465586245059967
0.37655264139175415 0.49690169095993042 0.25846463441848755
0.4398694634437561 0.51501405239105225 0.27013859152793884
0.50656956434249878 0.53548943996429443 0.27712410688400269
0.57372838258743286 0.55704027414321899 0.27962926030158997
0.63787209987640381 0.57846039533615112 0.27915266156196594
0.69818532466888428 0.59892648458480835 0.27647623419761658
0.75496566295623779 0.61681383848190308 0.2698967456817627
0.80726176500320435 0.62896972894668579 0.25793763995170593
0.85257256031036377 0.63512271642684937 0.24458946287631989
0.88787966966629028 0.636696457862854 0.23466071486473083
0.91162991523742676 0.63565188646316528 0.22783353924751282
0.92359942197799683 0.63387167453765869 0.22394576668739319
0.17111316323280334 0.49733608961105347 0.2100454568862915
0.19867329299449921 0.50075620412826538 0.21729381382465363
0.23797433078289032 0.50577825307846069 0.22669634222984314
0.28378969430923462 0.51223081350326538 0.23647996783256531
0.33502817153930664 0.52125245332717896 0.24711158871650696
0.39119765162467957 0.53310859203338623 0.25826835632324219
0.45183888077735901 0.54790604114532471 0.26805803179740906
0.51622700691223145 0.56588411331176758 0.27517759799957275
0.58166515827178955 0.58588695526123047 0.27976933121681213
0.64478063583374023 0.60692334175109863 0.28286761045455933
0.70393860340118408 0.62865477800369263 0.28450483083724976
0.75948655605316162 0.64979487657546997 0.28221568465232849
0.811562180519104 0.66673433780670166 0.27380204200744629
0.85890913009643555 0.67702567577362061 0.26128116250038147
0.89791327714920044 0.68089407682418823 0.24999178946018219
0.92521321773529053 0.68053776025772095 0.24142977595329285
0.93948477506637573 0.67854118347167969 0.23658959567546844
0.18120257556438446 0.54644155502319336 0.21298059821128845
0.2098744660615921 0.54847007989883423 0.21965177357196808
0.25009024143218994 0.55141907930374146 0.22804588079452515
0.29586589336395264 0.5552181601524353 0.2361777275800705
0.34602570533752441 0.56109678745269775 0.24444733560085297
0.40072417259216309 0.56988120079040527 0.25317025184631348
0.45974522829055786 0.58175301551818848 0.26139596104621887
0.52239644527435303 0.59690219163894653 0.26874431967735291
0.5863078236579895 0.61438947916030884 0.27488216757774353
0.64838922023773193 0.63352292776107788 0.28018134832382202
0.7066657543182373 0.65443140268325806 0.284321129322052
0.76130974292755127 0.67633754014968872 0.28486070036888123
0.81302076578140259 0.69635140895843506 0.27989849448204041
0.86129385232925415 0.71092009544372559 0.27047431468963623
0.90231913328170776 0.7181580662727356 0.26037958264350891
0.93260329961776733 0.71952414512634277 0.25162246823310852
0.95020467042922974 0.71795010566711426 0.24620579183101654
0.18645134568214417 0.59516489505767822 0.21205563843250275
0.21581590175628662 0.59563285112380981 0.21815484762191772
0.25666183233261108 0.59639012813568115 0.22553989291191101
0.30269190669059753 0.59798514842987061 0.23239666223526001
0.35248354077339172 0.60172897577285767 0.23922544717788696
0.4062170684337616 0.60834205150604248 0.24667331576347351
0.46385082602500916 0.61755841970443726 0.25405058264732361
0.524971604347229 0.62949997186660767 0.26129144430160522
0.58759582042694092 0.64395618438720703 0.2682507336139679
0.64892673492431641 0.66046017408370972 0.27474871277809143
0.70676231384277344 0.67935866117477417 0.27983862161636353
0.76095563173294067 0.699973464012146 0.28151565790176392
0.81244200468063354 0.72019147872924805 0.27882277965545654
0.86086344718933105 0.73684477806091309 0.27258363366127014
0.90255731344223022 0.74705570936203003 0.26493814587593079
0.93411439657211304 0.75102859735488892 0.25757825374603271
0.95348411798477173 0.75110995769500732 0.25252029299736023
0.18747390806674957 0.64268851280212402 0.20789016783237457
0.21703247725963593 0.64191621541976929 0.21365492045879364
0.25829067826271057 0.6409837007522583 0.22051897644996643
0.30484771728515625 0.64094549417495728 0.22675950825214386
0.35485810041427612 0.64308172464370728 0.23278769850730896
0.40832886099815369 0.64784502983093262 0.23937863111495972
0.46531900763511658 0.65460395812988281 0.24613101780414581
0.52550220489501953 0.66341966390609741 0.25300139188766479
0.58720594644546509 0.67469304800033569 0.26033711433410645
0.64795207977294922 0.68827188014984131 0.26763105392456055
0.7055133581161499 0.70458120107650757 0.2731284499168396
0.75955355167388916 0.72297728061676025 0.27528473734855652
0.8110385537147522 0.74170577526092529 0.27408042550086975
0.85938262939453125 0.75843781232833862 0.27019760012626648
0.90111595392227173 0.77027273178100586 0.26484197378158569
0.9328797459602356 0.77656024694442749 0.25936481356620789
0.95273041725158691 0.77880078554153442 0.2551770806312561
0.18530531227588654 0.68581700325012207 0.20147658884525299
0.2151351273059845 0.68387645483016968 0.20727421343326569
0.25689855217933655 0.68167734146118164 0.21401709318161011
0.30407708883285522 0.68066978454589844 0.21986852586269379
0.35455337166786194 0.68181264400482178 0.22519375383853912
0.40838328003883362 0.68506789207458496 0.23111557960510254
0.46562984585762024 0.68972295522689819 0.23738515377044678
0.52559000253677368 0.69610798358917236 0.24376274645328522
0.58665883541107178 0.70480996370315552 0.25116544961929321
0.64673471450805664 0.71574622392654419 0.2591998279094696
0.70394390821456909 0.72929275035858154 0.26527664065361023
0.75798803567886353 0.74500477313995361 0.26789811253547668
0.80965149402618408 0.76159161329269409 0.2676909863948822
0.85800594091415405 0.77742165327072144 0.26538693904876709
0.89956295490264893 0.78978049755096436 0.26171556115150452
0.93109601736068726 0.79738980531692505 0.25764551758766174
0.95114225149154663 0.80133819580078125 0.25413891673088074
0.18216301500797272 0.71717441082000732 0.19534587860107422
0.21267075836658478 0.71401351690292358 0.2015351802110672
0.25509554147720337 0.71085220575332642 0.20834431052207947
0.30282455682754517 0.70942807197570801 0.21380005776882172
0.35376331210136414 0.71023648977279663 0.21842847764492035
0.40812975168228149 0.71250838041305542 0.22394388914108276
0.46585884690284729 0.71577447652816772 0.22996246814727783
0.52585899829864502 0.72084885835647583 0.23581497371196747
0.58648008108139038 0.72808670997619629 0.24300514161586761
0.64591658115386963 0.7373349666595459 0.25152769684791565
0.70276588201522827 0.74884206056594849 0.2582327127456665
0.75684362649917603 0.76225399971008301 0.26145601272583008
0.80871665477752686 0.7768976092338562 0.26198336482048035
0.85719597339630127 0.79169279336929321 0.26059326529502869
0.89859384298324585 0.80392801761627197 0.25793960690498352
0.92984461784362793 0.81186890602111816 0.25462451577186584
0.95012044906616211 0.81669771671295166 0.25128945708274841
0.016412882134318352 0.058843497186899185 0.075241044163703918
0.037521541118621826 0.058339901268482208 0.070740826427936554
0.072291016578674316 0.056511949747800827 0.061884094029664993
0.1218288391828537 0.056164562702178955 0.051477998495101929
0.18578334152698517 0.063078992068767548 0.045465320348739624
0.26131880283355713 0.077434413135051727 0.043592404574155807
0.3430778980255127 0.095350071787834167 0.044078696519136429
0.42355597019195557 0.11339199542999268 0.047473166137933731
0.49692279100418091 0.13091559708118439 0.055627904832363129
0.55982530117034912 0.14715956151485443 0.06904185563325882
0.61477464437484741 0.15918180346488953 0.084154948592185974
0.66469842195510864 0.16635851562023163 0.099055998027324677
0.7105487585067749 0.17076188325881958 0.11290279775857925
0.75106745958328247 0.17322421073913574 0.12291064858436584
0.78543215990066528 0.17350597679615021 0.1281430721282959
0.81398540735244751 0.17170955240726471 0.1303904801607132
0.83398783206939697 0.16925354301929474 0.13118027150630951
0.013105812482535839 0.073653139173984528 0.085334576666355133
0.033444426953792572 0.074401110410690308 0.07969694584608078
0.067938759922981262 0.074514202773571014 0.070511303842067719
0.11778716742992401 0.076011925935745239 0.06017790362238884
0.18318572640419006 0.083493061363697052 0.053178545087575912
0.26146414875984192 0.097981803119182587 0.050248786807060242
0.34447693824768066 0.1164545863866806 0.050807513296604156
0.42403724789619446 0.13591146469116211 0.056026183068752289
0.49564146995544434 0.15436671674251556 0.065861649811267853
0.55887800455093384 0.17055052518844604 0.079068481922149658
0.61515343189239502 0.18272443115711212 0.092893600463867188
0.66562032699584961 0.19056479632854462 0.1060149222612381
0.71142357587814331 0.19587312638759613 0.11825170367956161
0.7521553635597229 0.19905821979045868 0.12781785428524017
0.78677773475646973 0.19932514429092407 0.13344912230968475
0.81521838903427124 0.19738781452178955 0.1361716091632843
0.83488655090332031 0.19512540102005005 0.13734717667102814
0.0091223279014229774 0.095722965896129608 0.099467761814594269
0.028303114697337151 0.098165147006511688 0.093634888529777527
0.061531983315944672 0.10080395638942719 0.08490268886089325
0.11119493097066879 0.10489078611135483 0.075282156467437744
0.17834459245204926 0.11375837773084641 0.067999601364135742
0.25983551144599915 0.12881335616111755 0.064263500273227692
0.34602954983711243 0.14770780503749847 0.063870839774608612
0.42666584253311157 0.16777309775352478 0.068609341979026794
0.4974619448184967 0.18660619854927063 0.078150548040866852
0.56047219038009644 0.20310972630977631 0.090275503695011139
0.61703872680664062 0.21609242260456085 0.10234732925891876
0.66757535934448242 0.2250826358795166 0.11368376016616821
0.71337711811065674 0.23152410984039307 0.12466064840555191
0.75443822145462036 0.23563544452190399 0.13406276702880859
0.78928756713867188 0.23641972243785858 0.14024768769741058
0.81741219758987427 0.23476432263851166 0.14348213374614716
0.8366013765335083 0.23284849524497986 0.14499194920063019
0.010106085799634457 0.12570913136005402 0.11526056379079819
0.026892378926277161 0.1293226033449173 0.11067691445350647
0.0569339320063591 0.13400958478450775 0.10363342612981796
0.10476906597614288 0.14073558151721954 0.096096783876419067
0.1728794127702713 0.15156620740890503 0.09021274745464325
0.25727775692939758 0.16763733327388763 0.086733996868133545
0.34705540537834167 0.18714570999145508 0.085448607802391052
0.43006351590156555 0.20761799812316895 0.087957940995693207
0.50212454795837402 0.22675979137420654 0.094427712261676788
0.56571376323699951 0.24371263384819031 0.10325482487678528
0.62237739562988281 0.2575029730796814 0.11293775588274002
0.67296814918518066 0.26735344529151917 0.12277425825595856
0.71884465217590332 0.27426809072494507 0.13268706202507019
0.75980478525161743 0.27860626578330994 0.14142899215221405
0.7941470742225647 0.27974539995193481 0.1474052369594574
0.82140910625457764 0.27858397364616394 0.15062528848648071
0.83980977535247803 0.27709892392158508 0.15220361948013306
0.020113129168748856 0.16410179436206818 0.13253611326217651
0.033781878650188446 0.16833154857158661 0.13020205497741699
0.05929487943649292 0.17466633021831512 0.12576876580715179
0.10331909358501434 0.1839548796415329 0.12178582698106766
0.16983442008495331 0.19696711003780365 0.11922747641801834
0.25560483336448669 0.21446450054645538 0.11775440722703934
0.34843510389328003 0.23477764427661896 0.11660362780094147
0.4344610869884491 0.25564289093017578 0.11644674837589264
0.50932705402374268 0.27514907717704773 0.11813416332006454
0.57490271329879761 0.29248771071434021 0.12194205075502396
0.63245576620101929 0.30677628517150879 0.12837396562099457
0.68374156951904297 0.31696039438247681 0.13602480292320251
0.73004835844039917 0.3236701488494873 0.14394585788249969
0.77032142877578735 0.32725954055786133 0.15076927840709686
0.80285865068435669 0.32769924402236938 0.15539051592350006
0.82825726270675659 0.32638981938362122 0.15801437199115753
0.84532409906387329 0.32500407099723816 0.15945756435394287
0.037478301674127579 0.20760944485664368 0.1508115828037262
0.049527548253536224 0.21279138326644897 0.15099102258682251
0.071697510778903961 0.22127801179885864 0.15014821290969849
0.11094439029693604 0.23334373533725739 0.15076582133769989
0.17308901250362396 0.2489355057477951 0.15328416228294373
0.25719597935676575 0.26825124025344849 0.15570445358753204
0.35147389769554138 0.28941994905471802 0.15598361194133759
0.4405859112739563 0.31042638421058655 0.15443518757820129
0.51901763677597046 0.32998448610305786 0.15217815339565277
0.58699357509613037 0.34728941321372986 0.15089473128318787
0.64582639932632446 0.36145791411399841 0.15254838764667511
0.69836330413818359 0.37156614661216736 0.1561061292886734
0.74554884433746338 0.37786728143692017 0.15995633602142334
0.78517913818359375 0.38028520345687866 0.16326349973678589
0.81569385528564453 0.37937623262405396 0.16580207645893097
0.83868956565856934 0.37720358371734619 0.16755016148090363
0.85386300086975098 0.37543106079101562 0.16866859793663025
0.06045304611325264 0.25381937623023987 0.1684931218624115
0.073159225285053253 0.2595556378364563 0.17108236253261566
0.095069058239459991 0.26954188942909241 0.17434553802013397
0.13121607899665833 0.28403320908546448 0.17978738248348236
0.18798767030239105 0.30254235863685608 0.18783636391162872
0.26660874485969543 0.32431226968765259 0.19561080634593964
