pipeline/data/luts/Lopez.cube
# 3D Color LUT 'Q-DDL_Pack_5 / Lopez' (http://quickddl.net/free_color_luts)
TITLE "Lopez"
LUT_3D_SIZE 5
DOMAIN_MIN 0.0 0.0 0.0
DOMAIN_MAX 1.0 1.0 1.0
0.017549309879541397 0.058197494596242905 0.0599200539290905
0.18675518035888672 0.058321233838796616 0.024641549214720726
0.49208590388298035 0.1271444708108902 0.04171324148774147
0.70770382881164551 0.16475899517536163 0.1017797589302063
0.83533257246017456 0.16450245678424835 0.11837060004472733
0.015519437380135059 0.16352733969688416 0.10879984498023987
0.17322857677936554 0.1958547979593277 0.098030902445316315
0.51112073659896851 0.27434849739074707 0.09316631406545639
0.73034965991973877 0.32433813810348511 0.12474710494279861
0.84282124042510986 0.327187180519104 0.14419858157634735
0.1114145964384079 0.34716477990150452 0.17928627133369446
0.26304891705513 0.39790710806846619 0.22088196873664856
0.55249625444412231 0.48732158541679382 0.24690385162830353
0.79020249843597412 0.53708761930465698 0.20908960700035095
0.88970011472702026 0.53482848405838013 0.19287858903408051
0.18120257556438446 0.54644155502319336 0.21298059821128845
0.34602570533752441 0.56109678745269775 0.24444733560085297
0.5863078236579895 0.61438947916030884 0.27488216757774353
0.81302076578140259 0.69635140895843506 0.27989849448204041
0.95020467042922974 0.71795010566711426 0.24620579183101654
0.18216301500797272 0.71717441082000732 0.19534587860107422
0.35376331210136414 0.71023648977279663 0.21842847764492035
0.58648008108139038 0.72808670997619629 0.24300514161586761
0.80871665477752686 0.7768976092338562 0.26198336482048035
0.95012044906616211 0.81669771671295166 0.25128945708274841
0.029077256098389626 0.072919905185699463 0.15456022322177887
0.16506969928741455 0.06601395457983017 0.11994810402393341
0.49361222982406616 0.13962842524051666 0.13225948810577393
0.72911572456359863 0.19238144159317017 0.1638464480638504
0.84024930000305176 0.18808947503566742 0.1836809366941452
0.025421245023608208 0.16612687706947327 0.22903357446193695
0.15547508001327515 0.1973804384469986 0.20615148544311523
0.49467334151268005 0.27916443347930908 0.2131795734167099
0.73044288158416748 0.32345589995384216 0.2168584018945694
0.86227083206176758 0.32104513049125671 0.21989330649375916
0.10598909109830856 0.35638236999511719 0.31388932466506958
0.20799820125102997 0.40096357464790344 0.32602974772453308
0.51539874076843262 0.49585893750190735 0.36940860748291016
0.77718770503997803 0.53970450162887573 0.33703774213790894
0.89419543743133545 0.53501075506210327 0.30754119157791138
0.16987918317317963 0.53381127119064331 0.35818472504615784
0.31233838200569153 0.56292301416397095 0.37616956233978271
0.55482292175292969 0.63097572326660156 0.41766700148582458
0.80104249715805054 0.70596778392791748 0.41904142498970032
0.94988554716110229 0.73723244667053223 0.38023462891578674
0.17048254609107971 0.6896049976348877 0.35330045223236084
0.3364032506942749 0.70214992761611938 0.36876434087753296
0.56854075193405151 0.73290383815765381 0.39384621381759644
0.79813110828399658 0.78174477815628052 0.40235009789466858
0.95289713144302368 0.82516264915466309 0.38840293884277344
0.062579721212387085 0.12511450052261353 0.31883731484413147
0.19445279240608215 0.12670573592185974 0.28018671274185181
0.47204256057739258 0.16067099571228027 0.27208626270294189
0.71555835008621216 0.19487689435482025 0.26487627625465393
0.843880295753479 0.20492255687713623 0.2869286835193634
0.056309640407562256 0.22624695301055908 0.36613538861274719
0.16040089726448059 0.23066924512386322 0.34191519021987915
0.46927884221076965 0.29470869898796082 0.35284233093261719
0.72586846351623535 0.32790780067443848 0.34242963790893555
0.87296187877655029 0.31655421853065491 0.30960249900817871
0.1144341453909874 0.40022379159927368 0.46446466445922852
0.20676791667938232 0.41765269637107849 0.46524441242218018
0.49449631571769714 0.50516879558563232 0.49300077557563782
0.76596850156784058 0.54579997062683105 0.4865405261516571
0.9068571925163269 0.5238986611366272 0.43631747364997864
0.17862793803215027 0.54151016473770142 0.51892805099487305
0.28872674703598022 0.57217532396316528 0.52759462594985962
0.51642149686813354 0.65851056575775146 0.56912195682525635
0.79172343015670776 0.73780292272567749 0.59631359577178955
0.94720244407653809 0.74420404434204102 0.55491334199905396
0.16884936392307281 0.68329453468322754 0.52485519647598267
0.31355035305023193 0.69638538360595703 0.54039901494979858
0.54774165153503418 0.75297969579696655 0.57587069272994995
0.78992927074432373 0.81495958566665649 0.60273939371109009
0.95044630765914917 0.83895182609558105 0.58000922203063965
0.083498813211917877 0.16204288601875305 0.51308465003967285
0.24013562500476837 0.17979808151721954 0.48581767082214355
0.48783847689628601 0.20432284474372864 0.46108078956604004
0.71126943826675415 0.19742217659950256 0.40935075283050537
0.82683223485946655 0.19469539821147919 0.39921599626541138
0.097115345299243927 0.29804232716560364 0.5283658504486084
0.22342553734779358 0.30807948112487793 0.51330137252807617
0.49124866724014282 0.34378054738044739 0.51139140129089355
0.72168934345245361 0.3409254252910614 0.48233696818351746
0.84090590476989746 0.31366801261901855 0.44954633712768555
0.1501004546880722 0.45880496501922607 0.57882523536682129
0.24467535316944122 0.46984940767288208 0.57878309488296509
0.50449591875076294 0.52515751123428345 0.60102808475494385
0.75800853967666626 0.55754685401916504 0.61053609848022461
0.89954847097396851 0.54544550180435181 0.58960640430450439
0.19567091763019562 0.59727013111114502 0.64260202646255493
0.29659944772720337 0.61577504873275757 0.65720921754837036
0.51103472709655762 0.68788766860961914 0.69929510354995728
0.79017961025238037 0.76386159658432007 0.73883229494094849
0.94581234455108643 0.77045273780822754 0.72471404075622559
0.20226402580738068 0.729339599609375 0.68032991886138916
0.3292025625705719 0.72955745458602905 0.69452536106109619
0.54200249910354614 0.79276394844055176 0.74864137172698975
0.81414759159088135 0.87905621528625488 0.79285132884979248
0.9454389214515686 0.89880079030990601 0.78885030746459961
0.084881998598575592 0.159123495221138 0.6837155818939209
0.25404056906700134 0.17552787065505981 0.66210478544235229
0.49470135569572449 0.19073915481567383 0.62762647867202759
0.7158922553062439 0.17775027453899384 0.56701153516769409
0.8504025936126709 0.17306792736053467 0.5485798716545105
0.10280749946832657 0.30778074264526367 0.67781025171279907
0.26492652297019958 0.32508558034896851 0.66339588165283203
0.50439685583114624 0.3460504412651062 0.64764785766601562
0.72724360227584839 0.33447641134262085 0.6085660457611084
0.86082357168197632 0.31640514731407166 0.57928836345672607
0.13925594091415405 0.47826558351516724 0.69926923513412476
0.27402180433273315 0.49360933899879456 0.69265013933181763
0.51689910888671875 0.5330321192741394 0.69780075550079346
0.75381177663803101 0.55404853820800781 0.69632440805435181
0.90086627006530762 0.55015146732330322 0.69004428386688232
0.19410106539726257 0.64125245809555054 0.75672203302383423
0.31311056017875671 0.65543580055236816 0.75110882520675659
0.52694982290267944 0.71396243572235107 0.78794181346893311
0.78050398826599121 0.77034139633178711 0.8265300989151001
0.93411403894424438 0.77959352731704712 0.81837522983551025
0.22225767374038696 0.78492683172225952 0.80794256925582886
0.35520884394645691 0.77874630689620972 0.80313003063201904
0.53989702463150024 0.81871491670608521 0.8457716703414917
0.80070126056671143 0.88849490880966187 0.89245814085006714
0.9647059440612793 0.94465214014053345 0.92719709873199463
